;FLAVOR:Marlin
;TIME:2516
;Filament used: 0.726263m, 0m
;Layer height: 0.2
;MINX:88.497
;MINY:128.398
;MINZ:0.2
;MAXX:138.769
;MAXY:221.271
;MAXZ:35
;Generated with StratosEngine 1.3.0
T0
M82 ;absolute extrusion mode
;Machine Model: Sigma D25 
;Materials used: T0 PLA T1 PLA 
;Extruders used: T0 0.4 T1 0.4 
M141 S40 	;Set chamber temperature 
M140 S60 	;Heat build surface
M104 T1 S210	;Heat extruder 1
M104 T0 S210	;Heat extruder 0 
M190 S60 	;Wait until bed temperature reached 
M109 T1 S210	;Heat extruder 1 and wait
M109 T0 S210	;Heat extruder 0 and wait
G21 		;metric values 
G90 		;absolute positioning 
M204 S2500 	;set default acceleration 
M205 X12.5 Y12.5 ;set default jerk 
M107 		;start with the fan off 
G28 X0 Y0 	;move X/Y to min endstops 
G28 Z0 		;move Z to min endstops 
G1 Z5 F200 	;safety Z axis movement
T1
G92 E0 		;set zero the extruded length 
G1 E10 F30
G92 E0 
G4 S2 		;stabilize hotend 
G1 E-0.5 F1000 
G92 E0
T0
G92 E0 		;set zero the extruded length 
G1 E10 F30
G92 E0 
G4 S2 		;stabilize hotend 
G1 E-0.5 F1000 
G92 E0
M605 S5 		;enable duplication mode
G4 P1
G4 P2
G4 P3

M141 S40
G92 E0
;LAYER_COUNT:175
;LAYER:0
M107
M204 S456
M205 X9.38 Y9.38
G1 F600 Z0.6
G0 F6000 X120.23 Y170.943 Z0.6
M204 S1425
;TYPE:SKIRT
G1 F600 Z0.2
G1 F1050 E0
G1 F1350 X118.808 Y171.654 E0.02392
G1 X117.273 Y172.066 E0.04784
G1 X115.998 Y172.169 E0.06709
G1 X111.315 Y172.169 E0.13756
G1 X109.734 Y172.01 E0.16147
G1 X109.059 Y171.837 E0.17196
G1 X108.105 Y172.063 E0.18671
G1 X106.815 Y172.169 E0.20619
G1 X102.131 Y172.169 E0.27668
G1 X100.55 Y172.01 E0.30059
G1 X99.032 Y171.537 E0.32452
G1 X97.639 Y170.772 E0.34843
G1 X96.427 Y169.743 E0.37236
G1 X95.445 Y168.494 E0.39627
G1 X94.732 Y167.073 E0.42019
G1 X94.317 Y165.539 E0.44411
G1 X94.211 Y164.257 E0.46346
G1 X94.211 Y161.444 E0.5058
G1 X91.669 Y156.231 E0.59307
G1 X91.531 Y155.932 E0.59803
G1 X91.151 Y155.063 E0.6123
G1 X90.917 Y154.463 E0.62199
G1 X90.611 Y153.572 E0.63617
G1 X90.422 Y152.936 E0.64615
G1 X90.191 Y152.02 E0.66037
G1 X90.055 Y151.363 E0.67047
G1 X89.896 Y150.392 E0.68527
G1 X89.807 Y149.594 E0.69736
G1 X89.726 Y148.265 E0.71739
G1 X89.717 Y147.473 E0.72931
G1 X89.754 Y146.528 E0.74354
G1 X89.806 Y145.881 E0.75331
G1 X89.92 Y144.944 E0.76752
G1 X90.026 Y144.299 E0.77735
G1 X90.217 Y143.374 E0.79157
G1 X90.638 Y141.845 E0.81543
G1 X90.848 Y141.226 E0.82527
G1 X91.186 Y140.35 E0.8394
G1 X91.446 Y139.75 E0.84924
G1 X91.857 Y138.901 E0.86343
G1 X92.161 Y138.334 E0.87311
G1 X92.642 Y137.517 E0.88738
G1 X92.998 Y136.965 E0.89726
G1 X93.549 Y136.185 E0.91164
G1 X93.981 Y135.629 E0.92223
G1 X94.611 Y134.887 E0.93688
G1 X95.06 Y134.4 E0.94685
G1 X95.741 Y133.722 E0.96131
G1 X96.282 Y133.231 E0.9723
G1 X97.223 Y132.453 E0.99068
G1 X97.83 Y131.999 E1.00208
G1 X98.638 Y131.452 E1.01677
G1 X99.199 Y131.105 E1.02669
G1 X100.057 Y130.623 E1.0415
G1 X100.795 Y130.257 E1.0539
G1 X101.964 Y129.752 E1.07306
G1 X102.706 Y129.475 E1.08498
G1 X103.694 Y129.161 E1.10058
G1 X104.354 Y128.982 E1.11087
G1 X105.278 Y128.774 E1.12512
G1 X105.962 Y128.652 E1.13558
G1 X107.033 Y128.508 E1.15184
G1 X107.794 Y128.442 E1.16334
G1 X108.977 Y128.398 E1.18115
G1 X109.897 Y128.418 E1.195
G1 X111.26 Y128.526 E1.21557
G1 X112.099 Y128.638 E1.22831
G1 X113.146 Y128.835 E1.24434
G1 X113.828 Y128.994 E1.25488
G1 X114.762 Y129.257 E1.26948
G1 X115.39 Y129.463 E1.27943
G1 X116.283 Y129.797 E1.29378
G1 X116.877 Y130.047 E1.30348
G1 X117.728 Y130.447 E1.31763
G1 X118.293 Y130.741 E1.32721
G1 X119.109 Y131.208 E1.34136
G1 X119.696 Y131.579 E1.35181
G1 X120.467 Y132.115 E1.36594
G1 X120.967 Y132.493 E1.37537
G1 X121.699 Y133.093 E1.38962
G1 X122.182 Y133.523 E1.39935
G1 X122.865 Y134.183 E1.41364
G1 X123.333 Y134.676 E1.42387
G1 X123.954 Y135.389 E1.4381
G1 X124.382 Y135.925 E1.44842
G1 X124.982 Y136.748 E1.46375
G1 X125.384 Y137.357 E1.47473
G1 X125.975 Y138.348 E1.49209
G1 X126.365 Y139.089 E1.50469
G1 X126.863 Y140.169 E1.52259
G1 X127.149 Y140.876 E1.53407
G1 X127.515 Y141.925 E1.55078
G1 X127.725 Y142.631 E1.56187
G1 X127.952 Y143.548 E1.57608
G1 X128.103 Y144.32 E1.58792
G1 X128.3 Y145.686 E1.60869
G1 X128.375 Y146.514 E1.6212
G1 X128.415 Y147.558 E1.63692
G1 X128.409 Y148.296 E1.64803
G1 X128.354 Y149.296 E1.6631
G1 X128.29 Y149.959 E1.67313
G1 X128.157 Y150.909 E1.68756
G1 X128.028 Y151.602 E1.69817
G1 X127.806 Y152.558 E1.71294
G1 X127.627 Y153.204 E1.72303
G1 X127.313 Y154.175 E1.73838
G1 X127.063 Y154.842 E1.7491
G1 X126.628 Y155.863 E1.7658
G1 X126.464 Y156.224 E1.77177
G1 X125.703 Y157.789 E1.79796
G1 X123.919 Y161.445 E1.85917
G1 X123.92 Y163.214 E1.88579
G1 X123.918 Y164.264 E1.9016
G1 X123.755 Y165.845 E1.92551
G1 X123.281 Y167.362 E1.94943
G1 X122.512 Y168.754 E1.97336
G1 X121.482 Y169.964 E1.99727
G1 X120.23 Y170.943 E2.02119
M204 S456
G0 F6000 X119.771 Y170.661
M204 S1425
G1 F1350 X118.369 Y171.301 E2.04438
G1 X116.866 Y171.638 E2.06756
G1 X115.998 Y171.689 E2.08065
G1 X111.315 Y171.689 E2.15112
G1 X109.783 Y171.53 E2.1743
G1 X109.055 Y171.337 E2.18563
G1 X107.698 Y171.636 E2.20654
G1 X106.815 Y171.689 E2.21985
G1 X102.131 Y171.689 E2.29034
G1 X100.599 Y171.53 E2.31352
G1 X99.132 Y171.058 E2.33671
G1 X97.795 Y170.295 E2.35987
G1 X96.643 Y169.272 E2.38306
G1 X95.726 Y168.034 E2.40624
G1 X95.084 Y166.634 E2.42942
G1 X94.744 Y165.132 E2.45259
G1 X94.691 Y164.256 E2.4658
G1 X94.692 Y161.332 E2.5098
G1 X92.101 Y156.02 E2.59874
G1 X91.971 Y155.74 E2.60339
G1 X91.591 Y154.871 E2.61766
G1 X91.371 Y154.307 E2.62677
G1 X91.065 Y153.416 E2.64095
G1 X90.888 Y152.818 E2.65033
G1 X90.657 Y151.902 E2.66455
G1 X90.529 Y151.285 E2.67403
G1 X90.37 Y150.314 E2.68884
G1 X90.286 Y149.565 E2.70018
G1 X90.205 Y148.236 E2.72022
G1 X90.197 Y147.492 E2.73141
G1 X90.234 Y146.547 E2.74564
G1 X90.282 Y145.939 E2.75482
G1 X90.396 Y145.002 E2.76903
G1 X90.496 Y144.396 E2.77827
G1 X90.687 Y143.471 E2.79248
G1 X91.098 Y141.981 E2.81574
G1 X91.296 Y141.399 E2.82499
G1 X91.634 Y140.523 E2.83912
G1 X91.878 Y139.959 E2.84837
G1 X92.289 Y139.11 E2.86257
G1 X92.575 Y138.577 E2.87167
G1 X93.056 Y137.76 E2.88594
G1 X93.39 Y137.242 E2.89521
G1 X93.941 Y136.462 E2.90958
G1 X94.347 Y135.94 E2.91953
G1 X94.977 Y135.198 E2.93418
G1 X95.399 Y134.741 E2.94354
G1 X96.08 Y134.063 E2.958
G1 X96.588 Y133.601 E2.96834
G1 X97.529 Y132.823 E2.98671
G1 X98.099 Y132.396 E2.99743
G1 X98.907 Y131.849 E3.01211
G1 X99.434 Y131.523 E3.02144
G1 X100.292 Y131.041 E3.03624
G1 X100.986 Y130.698 E3.04789
G1 X102.155 Y130.193 E3.06706
G1 X102.852 Y129.932 E3.07826
G1 X103.84 Y129.618 E3.09386
G1 X104.459 Y129.451 E3.10351
G1 X105.383 Y129.243 E3.11776
G1 X106.026 Y129.127 E3.12759
G1 X107.097 Y128.983 E3.14385
G1 X107.811 Y128.922 E3.15464
G1 X108.994 Y128.878 E3.17245
G1 X109.859 Y128.896 E3.18547
G1 X111.222 Y129.004 E3.20605
G1 X112.01 Y129.109 E3.21801
G1 X113.057 Y129.306 E3.23404
G1 X113.698 Y129.457 E3.24395
G1 X114.632 Y129.72 E3.25855
G1 X115.221 Y129.912 E3.26788
G1 X116.114 Y130.246 E3.28222
G1 X116.673 Y130.482 E3.29135
G1 X117.524 Y130.882 E3.3055
G1 X118.055 Y131.158 E3.31451
G1 X118.871 Y131.625 E3.32866
G1 X119.422 Y131.973 E3.33847
G1 X120.193 Y132.509 E3.3526
G1 X120.662 Y132.864 E3.36145
G1 X121.394 Y133.464 E3.37569
G1 X121.848 Y133.868 E3.38484
G1 X122.531 Y134.528 E3.39913
G1 X122.971 Y134.992 E3.40875
G1 X123.592 Y135.705 E3.42298
G1 X123.994 Y136.208 E3.43267
G1 X124.594 Y137.031 E3.448
G1 X124.972 Y137.603 E3.45831
G1 X125.563 Y138.594 E3.47568
G1 X125.929 Y139.29 E3.48751
G1 X126.427 Y140.37 E3.50541
G1 X126.696 Y141.034 E3.51619
G1 X127.062 Y142.083 E3.53291
G1 X127.259 Y142.746 E3.54332
G1 X127.486 Y143.663 E3.55753
G1 X127.628 Y144.389 E3.56867
G1 X127.825 Y145.755 E3.58943
G1 X127.896 Y146.532 E3.60118
G1 X127.936 Y147.576 E3.6169
G1 X127.93 Y148.27 E3.62734
G1 X127.875 Y149.27 E3.64241
G1 X127.814 Y149.893 E3.65183
G1 X127.681 Y150.843 E3.66627
G1 X127.56 Y151.494 E3.67623
G1 X127.338 Y152.45 E3.691
G1 X127.17 Y153.056 E3.70046
G1 X126.856 Y154.027 E3.71582
G1 X126.622 Y154.654 E3.72589
G1 X126.187 Y155.675 E3.74259
G1 X126.032 Y156.014 E3.7482
G1 X125.271 Y157.578 E3.77438
G1 X123.438 Y161.333 E3.83726
G1 X123.44 Y163.213 E3.86555
G1 X123.438 Y164.263 E3.88135
G1 X123.276 Y165.795 E3.90453
G1 X122.801 Y167.261 E3.92772
G1 X122.035 Y168.597 E3.9509
G1 X121.011 Y169.747 E3.97407
G1 X119.771 Y170.661 E3.99725
M204 S456
G0 F6000 X119.314 Y170.368
M204 S1425
G1 F1350 X117.936 Y170.934 E4.01967
G1 X116.469 Y171.193 E4.04209
G1 X115.998 Y171.209 E4.04918
G1 X111.315 Y171.209 E4.11965
G1 X109.834 Y171.05 E4.14206
G1 X109.055 Y170.829 E4.15425
G1 X108.04 Y171.1 E4.17006
G1 X106.815 Y171.209 E4.18857
G1 X102.131 Y171.209 E4.25905
G1 X100.65 Y171.05 E4.28147
G1 X99.237 Y170.579 E4.30388
G1 X97.956 Y169.818 E4.3263
G1 X96.866 Y168.802 E4.34873
G1 X96.018 Y167.577 E4.37115
G1 X95.45 Y166.2 E4.39356
G1 X95.188 Y164.733 E4.41599
G1 X95.171 Y164.256 E4.42317
G1 X95.172 Y161.223 E4.46881
G1 X92.532 Y155.81 E4.55944
G1 X92.411 Y155.548 E4.56378
G1 X92.031 Y154.679 E4.57806
G1 X91.825 Y154.151 E4.58659
G1 X91.519 Y153.26 E4.60076
G1 X91.353 Y152.701 E4.60954
G1 X91.122 Y151.785 E4.62375
G1 X91.002 Y151.208 E4.63262
G1 X90.843 Y150.237 E4.64743
G1 X90.765 Y149.535 E4.65806
G1 X90.684 Y148.206 E4.67809
G1 X90.676 Y147.511 E4.68855
G1 X90.713 Y146.566 E4.70279
G1 X90.759 Y145.997 E4.71138
G1 X90.873 Y145.06 E4.72558
G1 X90.966 Y144.494 E4.73421
G1 X91.157 Y143.569 E4.74843
G1 X91.559 Y142.116 E4.77111
G1 X91.744 Y141.572 E4.77976
G1 X92.082 Y140.696 E4.79389
G1 X92.31 Y140.168 E4.80254
G1 X92.721 Y139.319 E4.81674
G1 X92.988 Y138.821 E4.82524
G1 X93.469 Y138.004 E4.83951
G1 X93.782 Y137.519 E4.8482
G1 X94.333 Y136.739 E4.86257
G1 X94.712 Y136.25 E4.87188
G1 X95.342 Y135.508 E4.88652
G1 X95.737 Y135.081 E4.89528
G1 X96.418 Y134.403 E4.90974
G1 X96.894 Y133.971 E4.91941
G1 X97.835 Y133.193 E4.93779
G1 X98.368 Y132.794 E4.9478
G1 X99.176 Y132.247 E4.96249
G1 X99.669 Y131.942 E4.97121
G1 X100.527 Y131.46 E4.98602
G1 X101.176 Y131.139 E4.99692
G1 X102.345 Y130.634 E5.01608
G1 X102.997 Y130.39 E5.02656
G1 X103.985 Y130.076 E5.04216
G1 X104.564 Y129.919 E5.05118
G1 X105.488 Y129.711 E5.06544
G1 X106.09 Y129.603 E5.07464
G1 X107.161 Y129.459 E5.0909
G1 X107.829 Y129.402 E5.10099
G1 X109.012 Y129.358 E5.11881
G1 X109.821 Y129.375 E5.13098
G1 X111.184 Y129.483 E5.15156
G1 X111.921 Y129.581 E5.16275
G1 X112.968 Y129.778 E5.17878
G1 X113.567 Y129.919 E5.18804
G1 X114.501 Y130.182 E5.20264
G1 X115.053 Y130.362 E5.21138
G1 X115.946 Y130.696 E5.22573
G1 X116.469 Y130.916 E5.23426
G1 X117.32 Y131.316 E5.24841
G1 X117.816 Y131.574 E5.25683
G1 X118.632 Y132.041 E5.27098
G1 X119.148 Y132.367 E5.28016
G1 X119.919 Y132.903 E5.29429
G1 X120.358 Y133.235 E5.30257
G1 X121.09 Y133.835 E5.31682
G1 X121.514 Y134.213 E5.32537
G1 X122.197 Y134.873 E5.33966
G1 X122.609 Y135.307 E5.34866
G1 X123.23 Y136.02 E5.36289
G1 X123.606 Y136.491 E5.37196
G1 X124.206 Y137.314 E5.38729
G1 X124.56 Y137.849 E5.39694
G1 X125.151 Y138.84 E5.41431
G1 X125.493 Y139.491 E5.42537
G1 X125.991 Y140.571 E5.44327
G1 X126.242 Y141.192 E5.45335
G1 X126.608 Y142.241 E5.47007
G1 X126.793 Y142.862 E5.47982
G1 X127.02 Y143.779 E5.49403
G1 X127.153 Y144.458 E5.50445
G1 X127.35 Y145.824 E5.52522
G1 X127.416 Y146.551 E5.5362
G1 X127.456 Y147.595 E5.55192
G1 X127.45 Y148.243 E5.56167
G1 X127.395 Y149.243 E5.57675
G1 X127.339 Y149.826 E5.58556
G1 X127.206 Y150.776 E5.59999
G1 X127.093 Y151.385 E5.60932
G1 X126.871 Y152.341 E5.62408
G1 X126.713 Y152.909 E5.63296
G1 X126.399 Y153.88 E5.64831
G1 X126.18 Y154.466 E5.65773
G1 X125.745 Y155.487 E5.67443
G1 X125.601 Y155.804 E5.67967
G1 X124.84 Y157.368 E5.70584
G1 X122.958 Y161.224 E5.77041
G1 X122.96 Y163.212 E5.80033
G1 X122.958 Y164.262 E5.81613
G1 X122.796 Y165.743 E5.83855
G1 X122.322 Y167.155 E5.86096
G1 X121.559 Y168.435 E5.88339
G1 X120.541 Y169.522 E5.9058
G1 X119.314 Y170.368 E5.92823
M204 S456
G0 F6000 X118.861 Y170.062
M204 S1425
G1 F1350 X117.509 Y170.55 E5.94986
G1 X115.998 Y170.729 E5.97275
G1 X111.315 Y170.729 E6.04322
G1 X109.887 Y170.57 E6.06485
G1 X109.027 Y170.34 E6.07824
G1 X107.63 Y170.677 E6.09987
G1 X106.815 Y170.729 E6.11216
G1 X102.131 Y170.729 E6.18265
G1 X100.703 Y170.57 E6.20427
G1 X99.345 Y170.099 E6.2259
G1 X98.124 Y169.341 E6.24752
G1 X97.1 Y168.333 E6.26915
G1 X96.323 Y167.123 E6.29079
G1 X95.833 Y165.772 E6.31241
G1 X95.651 Y164.255 E6.33541
G1 X95.652 Y161.11 E6.38273
G1 X92.964 Y155.599 E6.475
G1 X92.851 Y155.355 E6.47905
G1 X92.471 Y154.486 E6.49332
G1 X92.279 Y153.995 E6.50126
G1 X91.973 Y153.104 E6.51543
G1 X91.819 Y152.584 E6.52359
G1 X91.588 Y151.668 E6.53781
G1 X91.476 Y151.13 E6.54608
G1 X91.317 Y150.159 E6.56089
G1 X91.244 Y149.506 E6.57077
G1 X91.163 Y148.177 E6.59081
G1 X91.156 Y147.529 E6.60056
G1 X91.193 Y146.584 E6.61479
G1 X91.235 Y146.055 E6.62278
G1 X91.349 Y145.118 E6.63698
G1 X91.436 Y144.591 E6.64502
G1 X91.627 Y143.666 E6.65924
G1 X92.02 Y142.251 E6.68134
G1 X92.191 Y141.744 E6.68939
G1 X92.529 Y140.868 E6.70352
G1 X92.742 Y140.377 E6.71157
G1 X93.153 Y139.528 E6.72577
G1 X93.402 Y139.064 E6.73369
G1 X93.883 Y138.247 E6.74796
G1 X94.174 Y137.796 E6.75603
G1 X94.725 Y137.016 E6.77041
G1 X95.078 Y136.561 E6.77907
G1 X95.708 Y135.819 E6.79372
G1 X96.076 Y135.421 E6.80188
G1 X96.757 Y134.743 E6.81634
G1 X97.2 Y134.341 E6.82534
G1 X98.141 Y133.563 E6.84371
G1 X98.637 Y133.191 E6.85304
G1 X99.445 Y132.644 E6.86773
G1 X99.904 Y132.36 E6.87585
G1 X100.762 Y131.878 E6.89066
G1 X101.366 Y131.579 E6.9008
G1 X102.535 Y131.074 E6.91996
G1 X103.142 Y130.847 E6.92972
G1 X104.13 Y130.533 E6.94532
G1 X104.67 Y130.387 E6.95373
G1 X105.594 Y130.179 E6.96799
G1 X106.154 Y130.079 E6.97655
G1 X107.225 Y129.935 E6.99281
G1 X107.847 Y129.881 E7.0022
G1 X109.03 Y129.837 E7.02002
G1 X109.783 Y129.853 E7.03135
G1 X111.146 Y129.961 E7.05193
G1 X111.832 Y130.053 E7.06234
G1 X112.879 Y130.25 E7.07838
G1 X113.437 Y130.381 E7.087
G1 X114.371 Y130.644 E7.1016
G1 X114.885 Y130.812 E7.10974
G1 X115.778 Y131.146 E7.12409
G1 X116.265 Y131.351 E7.13204
G1 X117.116 Y131.751 E7.14619
G1 X117.578 Y131.991 E7.15402
G1 X118.394 Y132.458 E7.16817
G1 X118.874 Y132.761 E7.17672
G1 X119.645 Y133.297 E7.19085
G1 X120.054 Y133.606 E7.19856
G1 X120.786 Y134.206 E7.2128
G1 X121.181 Y134.558 E7.22076
G1 X121.864 Y135.218 E7.23506
G1 X122.247 Y135.622 E7.24343
G1 X122.868 Y136.335 E7.25766
G1 X123.218 Y136.774 E7.26611
G1 X123.818 Y137.597 E7.28144
G1 X124.147 Y138.095 E7.29042
G1 X124.738 Y139.086 E7.30778
G1 X125.058 Y139.692 E7.3181
G1 X125.556 Y140.772 E7.33599
G1 X125.789 Y141.35 E7.34537
G1 X126.155 Y142.399 E7.36209
G1 X126.327 Y142.977 E7.37117
G1 X126.554 Y143.894 E7.38538
G1 X126.678 Y144.526 E7.39507
G1 X126.875 Y145.892 E7.41584
G1 X126.936 Y146.569 E7.42607
G1 X126.976 Y147.613 E7.44179
G1 X126.971 Y148.217 E7.45088
G1 X126.916 Y149.217 E7.46595
G1 X126.863 Y149.759 E7.47415
G1 X126.73 Y150.709 E7.48859
G1 X126.625 Y151.277 E7.49728
G1 X126.403 Y152.233 E7.51205
G1 X126.257 Y152.761 E7.52029
G1 X125.943 Y153.732 E7.53565
G1 X125.738 Y154.278 E7.54442
G1 X125.303 Y155.299 E7.56113
G1 X125.169 Y155.594 E7.566
G1 X124.409 Y157.157 E7.59215
G1 X122.478 Y161.113 E7.6584
G1 X122.48 Y163.211 E7.68997
G1 X122.478 Y164.261 E7.70577
G1 X122.316 Y165.689 E7.7274
G1 X121.843 Y167.047 E7.74904
G1 X121.083 Y168.266 E7.77066
G1 X120.072 Y169.288 E7.79229
G1 X118.861 Y170.062 E7.81392
M204 S456
G0 F6000 X119.605 Y169.044
M204 S1425
G1 F1350 X118.412 Y169.742 E7.83472
G1 X117.09 Y170.149 E7.85553
G1 X115.998 Y170.249 E7.87203
G1 X111.315 Y170.249 E7.94251
G1 X109.941 Y170.09 E7.96332
G1 X109.066 Y169.802 E7.97718
G1 X107.918 Y170.147 E7.99522
G1 X106.815 Y170.249 E8.01189
G1 X102.131 Y170.249 E8.08238
G1 X100.757 Y170.09 E8.10319
G1 X99.457 Y169.62 E8.124
G1 X98.298 Y168.865 E8.14481
G1 X97.343 Y167.865 E8.16562
G1 X96.643 Y166.673 E8.18642
G1 X96.233 Y165.352 E8.20724
G1 X96.131 Y164.255 E8.22381
G1 X96.132 Y161.001 E8.27278
G1 X93.395 Y155.389 E8.36674
G1 X93.291 Y155.163 E8.37049
G1 X92.911 Y154.294 E8.38476
G1 X92.733 Y153.839 E8.39211
G1 X92.427 Y152.948 E8.40629
G1 X92.284 Y152.466 E8.41385
G1 X92.053 Y151.55 E8.42807
