;FLAVOR:Marlin
;TIME:8053
;Filament used: 0m, 2.44565m
;Layer height: 0.2
;MINX:184.591
;MINY:117.511
;MINZ:0.2
;MAXX:235.409
;MAXY:182.725
;MAXZ:51.6
;Generated with StratosEngine 1.3.0
T1
M82 ;absolute extrusion mode
;Machine Model: Sigma D25 
;Materials used:  T1 PLA 
;Extruders used:  T1 0.4 
M141 S40 	;Set chamber temperature 
M140 S60 	;Heat build surface
M104 T1 S210	;Heat extruder 1
M190 S60 	;Wait until bed temperature reached 
M109 T1 S210	;Heat extruder 1 and wait
G21 		;metric values 
G90 		;absolute positioning 
M204 S2500 	;set default acceleration 
M205 X12.5 Y12.5 ;set default jerk 
M107 		;start with the fan off 
G28 X0 Y0 	;move X/Y to min endstops 
G28 Z0 		;move Z to min endstops 
G1 Z5 F200 	;safety Z axis movement

T1
G92 E0 		;set zero the extruded length 
G1 E10 F30
G92 E0 
G4 S2 		;stabilize hotend 
G1 E-0.5 F1000 
G92 E0

G4 P1
G4 P2
G4 P3

M141 S40
G92 E0
;LAYER_COUNT:258
;LAYER:0
M107
M204 S456
M205 X9.38 Y9.38
G1 F600 Z0.6
G0 F6000 X202.751 Y182.725 Z0.6
M204 S1425
;TYPE:SKIRT
G1 F600 Z0.2
G1 F1050 E0
G1 F1350 X201.102 Y182.72 E0.02482
G1 X200.188 Y182.667 E0.03859
G1 X195.377 Y182.108 E0.11148
G1 X193.765 Y181.949 E0.13585
G1 X192.247 Y181.476 E0.15978
G1 X190.854 Y180.711 E0.1837
G1 X189.746 Y179.788 E0.2054
G1 X188.978 Y178.964 E0.22235
G1 X188.101 Y177.638 E0.24627
G1 X187.507 Y176.164 E0.27019
G1 X187.218 Y174.601 E0.29411
G1 X187.192 Y173.954 E0.30385
G1 X187.192 Y165.722 E0.42773
G1 X186.581 Y165.095 E0.4409
G1 X185.669 Y163.793 E0.46482
G1 X185.025 Y162.305 E0.48922
G1 X184.757 Y161.326 E0.5045
G1 X184.591 Y159.745 E0.52842
G1 X184.744 Y158.163 E0.55234
G1 X185.209 Y156.643 E0.57626
G1 X185.969 Y155.247 E0.60018
G1 X186.992 Y154.031 E0.62409
G1 X187.064 Y153.968 E0.62553
G1 X186.687 Y152.637 E0.64635
G1 X186.556 Y151.201 E0.66805
G1 X186.556 Y149.079 E0.69998
G1 X186.715 Y147.498 E0.72389
G1 X187.065 Y146.313 E0.74249
G1 X186.072 Y145.178 E0.76518
G1 X185.281 Y143.8 E0.78909
G1 X184.782 Y142.291 E0.81301
G1 X184.648 Y141.506 E0.82499
G1 X184.592 Y140.568 E0.83913
G1 X184.632 Y139.022 E0.8624
G1 X184.949 Y137.465 E0.88632
G1 X185.224 Y136.718 E0.89829
G1 X185.673 Y135.823 E0.91336
G1 X187.192 Y133.222 E0.95869
G1 X187.192 Y126.068 E1.06635
G1 X187.351 Y124.487 E1.09026
G1 X187.824 Y122.969 E1.11418
G1 X188.589 Y121.576 E1.1381
G1 X189.512 Y120.468 E1.1598
G1 X190.7 Y119.336 E1.1845
G1 X192.026 Y118.459 E1.20842
G1 X193.5 Y117.865 E1.23233
G1 X195.063 Y117.576 E1.25625
G1 X195.743 Y117.55 E1.26649
G1 X202.101 Y117.576 E1.36217
G1 X203.836 Y117.516 E1.3883
G1 X204.139 Y117.511 E1.39286
G1 X218.365 Y117.56 E1.60694
G1 X219.382 Y117.561 E1.62224
G1 X220.947 Y117.837 E1.64616
G1 X221.176 Y117.914 E1.64979
G1 X224.496 Y117.914 E1.69975
G1 X226.077 Y118.073 E1.72366
G1 X227.595 Y118.546 E1.74759
G1 X228.988 Y119.311 E1.77151
G1 X230.096 Y120.234 E1.79321
G1 X230.856 Y121.05 E1.80999
G1 X231.733 Y122.376 E1.83391
G1 X232.327 Y123.85 E1.85783
G1 X232.616 Y125.413 E1.88175
G1 X232.642 Y126.061 E1.89151
G1 X232.641 Y133.742 E2.00709
G1 X233.441 Y134.541 E2.02411
G1 X234.385 Y135.922 E2.04928
G1 X234.804 Y136.784 E2.0637
G1 X235.263 Y138.306 E2.08763
G1 X235.409 Y139.82 E2.11052
G1 X235.408 Y159.81 E2.41133
G1 X235.248 Y161.392 E2.43526
G1 X234.776 Y162.91 E2.45918
G1 X234.328 Y163.802 E2.47421
G1 X232.649 Y166.679 E2.52433
G1 X232.649 Y173.954 E2.63381
G1 X232.49 Y175.535 E2.65772
G1 X232.017 Y177.053 E2.68165
G1 X231.252 Y178.446 E2.70556
G1 X230.329 Y179.554 E2.72727
G1 X229.505 Y180.322 E2.74422
G1 X228.179 Y181.199 E2.76814
G1 X226.705 Y181.793 E2.79205
G1 X225.142 Y182.082 E2.81597
G1 X224.495 Y182.108 E2.82572
G1 X222.019 Y182.108 E2.86298
G1 X217.846 Y182.463 E2.926
G1 X217.175 Y182.492 E2.93611
G1 X207.728 Y182.492 E3.07827
G1 X202.751 Y182.725 E3.15325
M204 S456
G0 F6000 X202.729 Y182.246
M204 S1425
G1 F1350 X201.102 Y182.24 E3.17773
G1 X200.243 Y182.19 E3.19068
G1 X195.406 Y181.628 E3.26396
G1 X193.814 Y181.469 E3.28804
G1 X192.347 Y180.997 E3.31123
G1 X191.01 Y180.234 E3.33439
G1 X190.085 Y179.449 E3.35265
G1 X189.335 Y178.642 E3.36923
G1 X188.493 Y177.352 E3.39241
G1 X187.935 Y175.916 E3.41559
G1 X187.685 Y174.396 E3.43878
G1 X187.672 Y173.954 E3.44543
G1 X187.672 Y165.501 E3.57263
G1 X186.898 Y164.727 E3.58911
G1 X186.03 Y163.454 E3.61229
G1 X185.482 Y162.16 E3.63344
G1 X185.223 Y161.205 E3.64833
G1 X185.071 Y159.672 E3.67151
G1 X185.239 Y158.141 E3.69469
G1 X185.718 Y156.677 E3.71787
G1 X186.488 Y155.343 E3.74105
G1 X187.517 Y154.196 E3.76424
G1 X187.634 Y154.101 E3.76651
G1 X187.299 Y153.163 E3.78149
G1 X187.049 Y151.643 E3.80467
G1 X187.036 Y151.201 E3.81133
G1 X187.036 Y149.079 E3.84326
G1 X187.195 Y147.547 E3.86644
G1 X187.632 Y146.172 E3.88815
G1 X186.758 Y145.285 E3.90689
G1 X185.91 Y143.999 E3.93007
G1 X185.345 Y142.566 E3.95325
G1 X185.087 Y141.047 E3.97644
G1 X185.072 Y139.817 E3.99495
G1 X185.231 Y138.285 E4.01813
G1 X185.703 Y136.818 E4.04132
G1 X186.087 Y136.065 E4.05404
G1 X187.672 Y133.351 E4.10133
G1 X187.672 Y126.068 E4.21093
G1 X187.831 Y124.536 E4.23411
G1 X188.303 Y123.069 E4.2573
G1 X189.066 Y121.732 E4.28047
G1 X189.851 Y120.807 E4.29872
G1 X191.022 Y119.693 E4.32304
G1 X192.312 Y118.851 E4.34623
G1 X193.748 Y118.293 E4.36941
G1 X195.268 Y118.043 E4.39259
G1 X195.741 Y118.03 E4.39971
G1 X202.116 Y118.056 E4.49565
G1 X203.853 Y117.996 E4.5218
G1 X204.138 Y117.991 E4.52609
G1 X218.384 Y118.04 E4.74047
G1 X219.394 Y118.044 E4.75567
G1 X220.908 Y118.325 E4.77884
G1 X221.103 Y118.394 E4.78196
G1 X224.496 Y118.394 E4.83301
G1 X226.028 Y118.553 E4.85619
G1 X227.495 Y119.025 E4.87938
G1 X228.832 Y119.788 E4.90255
G1 X229.757 Y120.573 E4.92081
G1 X230.499 Y121.372 E4.93721
G1 X231.341 Y122.662 E4.9604
G1 X231.899 Y124.098 E4.98358
G1 X232.149 Y125.618 E5.00676
G1 X232.162 Y126.061 E5.01343
G1 X232.161 Y133.959 E5.13228
G1 X233.122 Y134.907 E5.1526
G1 X233.963 Y136.15 E5.17518
G1 X234.37 Y136.99 E5.18923
G1 X234.805 Y138.467 E5.2124
G1 X234.929 Y139.82 E5.23284
G1 X234.928 Y159.81 E5.53366
G1 X234.768 Y161.342 E5.55684
G1 X234.297 Y162.809 E5.58003
G1 X233.914 Y163.56 E5.59271
G1 X232.169 Y166.55 E5.64481
G1 X232.169 Y173.954 E5.75623
G1 X232.01 Y175.486 E5.77941
G1 X231.538 Y176.953 E5.8026
G1 X230.775 Y178.29 E5.82576
G1 X229.99 Y179.215 E5.84402
G1 X229.183 Y179.965 E5.8606
G1 X227.893 Y180.807 E5.88378
G1 X226.457 Y181.365 E5.90696
G1 X224.937 Y181.615 E5.93015
G1 X224.495 Y181.628 E5.9368
G1 X222.003 Y181.628 E5.9743
G1 X217.806 Y181.985 E6.03769
G1 X217.175 Y182.012 E6.04719
G1 X207.727 Y182.012 E6.18937
G1 X202.729 Y182.246 E6.26466
M204 S456
G0 F6000 X202.706 Y181.766
M204 S1425
G1 F1350 X201.102 Y181.76 E6.2888
G1 X200.299 Y181.713 E6.30091
G1 X195.436 Y181.148 E6.37458
G1 X193.865 Y180.989 E6.39834
G1 X192.452 Y180.518 E6.42075
G1 X191.171 Y179.757 E6.44318
G1 X190.425 Y179.109 E6.45805
G1 X189.692 Y178.321 E6.47424
G1 X188.887 Y177.067 E6.49667
G1 X188.367 Y175.671 E6.51908
G1 X188.222 Y174.939 E6.53031
G1 X188.152 Y173.954 E6.54517
G1 X188.152 Y165.283 E6.67566
G1 X187.217 Y164.36 E6.69543
G1 X186.395 Y163.118 E6.71784
G1 X185.94 Y162.016 E6.73578
G1 X185.688 Y161.085 E6.7503
G1 X185.552 Y159.601 E6.77272
G1 X185.735 Y158.123 E6.79514
G1 X186.228 Y156.717 E6.81756
G1 X187.009 Y155.448 E6.83998
G1 X188.042 Y154.375 E6.86239
G1 X188.22 Y154.242 E6.86574
G1 X187.731 Y152.918 E6.88698
G1 X187.586 Y152.186 E6.89821
G1 X187.516 Y151.201 E6.91307
G1 X187.516 Y149.079 E6.945
G1 X187.675 Y147.598 E6.96741
G1 X188.146 Y146.185 E6.98983
G1 X188.223 Y146.038 E6.99232
G1 X187.444 Y145.339 E7.00807
G1 X186.545 Y144.151 E7.03049
G1 X185.919 Y142.799 E7.05291
G1 X185.596 Y141.345 E7.07533
G1 X185.552 Y139.817 E7.09833
G1 X185.711 Y138.336 E7.12075
G1 X186.182 Y136.923 E7.14316
G1 X186.502 Y136.307 E7.15361
G1 X188.152 Y133.482 E7.20284
G1 X188.152 Y126.068 E7.31441
G1 X188.311 Y124.587 E7.33682
G1 X188.782 Y123.174 E7.35924
G1 X189.543 Y121.893 E7.38166
G1 X190.191 Y121.147 E7.39653
G1 X191.343 Y120.05 E7.42047
G1 X192.597 Y119.245 E7.44289
G1 X193.993 Y118.725 E7.46531
G1 X194.725 Y118.58 E7.47654
G1 X195.739 Y118.51 E7.49183
G1 X202.106 Y118.536 E7.58765
G1 X203.87 Y118.475 E7.61421
G1 X204.136 Y118.471 E7.61821
G1 X218.4 Y118.52 E7.83287
G1 X219.404 Y118.526 E7.84797
G1 X220.866 Y118.814 E7.8704
G1 X221.028 Y118.874 E7.873
G1 X224.496 Y118.874 E7.92519
G1 X225.977 Y119.033 E7.9476
G1 X227.39 Y119.504 E7.97001
G1 X228.671 Y120.265 E7.99244
G1 X229.417 Y120.913 E8.00731
G1 X230.142 Y121.693 E8.02333
G1 X230.947 Y122.947 E8.04576
G1 X231.467 Y124.343 E8.06817
G1 X231.612 Y125.075 E8.0794
G1 X231.682 Y126.061 E8.09428
G1 X231.681 Y134.185 E8.21653
G1 X232.8 Y135.271 E8.24
G1 X233.54 Y136.377 E8.26002
G1 X233.935 Y137.195 E8.27369
G1 X234.346 Y138.627 E8.29611
G1 X234.449 Y139.82 E8.31413
G1 X234.448 Y159.81 E8.61495
G1 X234.288 Y161.291 E8.63737
G1 X233.817 Y162.705 E8.65979
G1 X233.499 Y163.318 E8.67019
G1 X231.689 Y166.42 E8.72423
G1 X231.689 Y173.954 E8.83761
G1 X231.53 Y175.435 E8.86002
G1 X231.059 Y176.848 E8.88244
G1 X230.298 Y178.129 E8.90486
G1 X229.65 Y178.875 E8.91973
G1 X228.862 Y179.608 E8.93592
G1 X227.608 Y180.413 E8.95835
G1 X226.212 Y180.933 E8.98076
G1 X225.48 Y181.078 E8.99199
G1 X224.495 Y181.148 E9.00685
G1 X221.985 Y181.148 E9.04463
G1 X217.765 Y181.507 E9.10836
G1 X217.175 Y181.532 E9.11725
G1 X207.704 Y181.532 E9.25977
G1 X202.706 Y181.766 E9.33506
M204 S456
G0 F6000 X202.684 Y181.287
M204 S1425
G1 F1350 X201.102 Y181.28 E9.35887
G1 X200.354 Y181.237 E9.37015
G1 X195.457 Y180.668 E9.44433
G1 X193.918 Y180.509 E9.46762
G1 X192.56 Y180.038 E9.48925
G1 X191.339 Y179.28 E9.51087
G1 X190.53 Y178.536 E9.52741
G1 X189.633 Y177.413 E9.54904
G1 X189.005 Y176.12 E9.57067
G1 X188.678 Y174.721 E9.59229
G1 X188.632 Y173.954 E9.60386
G1 X188.632 Y165.056 E9.73776
G1 X188.022 Y164.529 E9.74989
G1 X187.118 Y163.412 E9.77151
G1 X186.765 Y162.785 E9.78234
G1 X186.398 Y161.871 E9.79716
G1 X186.154 Y160.965 E9.81128
G1 X186.033 Y159.533 E9.83291
G1 X186.232 Y158.109 E9.85455
G1 X186.74 Y156.765 E9.87617
G1 X187.531 Y155.565 E9.8978
G1 X188.567 Y154.569 E9.91942
G1 X188.842 Y154.382 E9.92443
G1 X188.369 Y153.367 E9.94128
G1 X188.042 Y151.968 E9.9629
G1 X187.996 Y151.201 E9.97446
G1 X187.996 Y149.079 E10.00639
G1 X188.155 Y147.651 E10.02802
G1 X188.626 Y146.293 E10.04965
G1 X188.841 Y145.899 E10.0564
G1 X188.126 Y145.338 E10.07008
G1 X187.183 Y144.254 E10.0917
G1 X186.501 Y142.989 E10.11332
G1 X186.115 Y141.604 E10.13496
G1 X186.032 Y140.568 E10.1506
G1 X186.072 Y139.098 E10.17273
G1 X186.389 Y137.697 E10.19435
G1 X186.916 Y136.549 E10.21335
G1 X188.632 Y133.611 E10.26456
G1 X188.632 Y126.068 E10.37807
G1 X188.791 Y124.64 E10.39969
G1 X189.262 Y123.282 E10.42132
G1 X190.02 Y122.061 E10.44295
G1 X191.128 Y120.888 E10.46723
G1 X192.251 Y119.991 E10.48886
G1 X193.544 Y119.363 E10.51049
G1 X194.943 Y119.036 E10.53211
G1 X195.737 Y118.99 E10.54408
G1 X202.121 Y119.016 E10.64015
G1 X203.887 Y118.955 E10.66674
G1 X204.134 Y118.951 E10.67045
G1 X218.424 Y119 E10.8855
G1 X219.413 Y119.009 E10.90038
G1 X220.82 Y119.303 E10.92201
G1 X220.95 Y119.354 E10.92411
G1 X224.496 Y119.354 E10.97748
G1 X225.924 Y119.513 E10.9991
G1 X227.282 Y119.984 E11.02073
G1 X228.503 Y120.742 E11.04235
G1 X229.304 Y121.478 E11.05872
G1 X230.201 Y122.601 E11.08035
G1 X230.829 Y123.894 E11.10198
G1 X231.156 Y125.293 E11.1236
G1 X231.202 Y126.061 E11.13518
G1 X231.201 Y134.433 E11.26117
G1 X231.997 Y135.097 E11.27677
G1 X232.893 Y136.221 E11.2984
G1 X233.5 Y137.399 E11.31834
G1 X233.886 Y138.784 E11.33998
G1 X233.969 Y139.82 E11.35562
G1 X233.968 Y159.81 E11.65643
G1 X233.809 Y161.239 E11.67807
G1 X233.338 Y162.597 E11.6997
G1 X233.085 Y163.076 E11.70785
G1 X231.209 Y166.291 E11.76387
G1 X231.209 Y173.954 E11.87918
G1 X231.05 Y175.382 E11.90081
G1 X230.579 Y176.74 E11.92244
G1 X229.821 Y177.961 E11.94406
G1 X229.077 Y178.77 E11.9606
G1 X227.954 Y179.667 E11.98223
G1 X226.661 Y180.295 E12.00386
G1 X225.262 Y180.622 E12.02548
G1 X224.495 Y180.668 E12.03705
G1 X221.968 Y180.668 E12.07507
G1 X217.724 Y181.029 E12.13917
G1 X217.175 Y181.052 E12.14744
G1 X207.703 Y181.052 E12.28998
G1 X202.684 Y181.287 E12.36559
M204 S456
G0 F6000 X202.662 Y180.807
M204 S1425
G1 F1350 X201.102 Y180.8 E12.38906
G1 X200.409 Y180.76 E12.39951
G1 X195.486 Y180.188 E12.47409
G1 X194.655 Y180.148 E12.48661
G1 X193.309 Y179.831 E12.50742
G1 X192.071 Y179.215 E12.52823
G1 X191.103 Y178.431 E12.54698
G1 X190.409 Y177.68 E12.56236
G1 X189.681 Y176.504 E12.58318
G1 X189.241 Y175.193 E12.60399
G1 X189.112 Y173.954 E12.62273
G1 X189.112 Y164.806 E12.7604
G1 X188.322 Y164.151 E12.77584
G1 X187.467 Y163.064 E12.79665
G1 X186.856 Y161.727 E12.81877
G1 X186.619 Y160.846 E12.8325
G1 X186.516 Y159.468 E12.8533
G1 X186.731 Y158.102 E12.8741
G1 X187.253 Y156.821 E12.89492
G1 X188.054 Y155.694 E12.91573
G1 X189.092 Y154.781 E12.93653
G1 X189.497 Y154.533 E12.94368
G1 X189.045 Y153.751 E12.95727
G1 X188.605 Y152.44 E12.97808
G1 X188.476 Y151.201 E12.99682
G1 X188.476 Y149.079 E13.02876
G1 X188.635 Y147.705 E13.04957
G1 X189.105 Y146.405 E13.07037
G1 X189.492 Y145.745 E13.08189
G1 X188.799 Y145.281 E13.09444
G1 X187.819 Y144.306 E13.11524
G1 X187.088 Y143.133 E13.13604
G1 X186.645 Y141.823 E13.15685
G1 X186.512 Y140.568 E13.17584
G1 X186.552 Y139.126 E13.19755
G1 X186.869 Y137.78 E13.21836
G1 X187.331 Y136.791 E13.23479
G1 X189.112 Y133.741 E13.28794
G1 X189.112 Y126.068 E13.4034
G1 X189.271 Y124.694 E13.42422
G1 X189.741 Y123.394 E13.44502
G1 X190.496 Y122.235 E13.46583
G1 X191.467 Y121.227 E13.4869
G1 X192.551 Y120.369 E13.5077
G1 X193.803 Y119.781 E13.52852
G1 X195.156 Y119.496 E13.54932
G1 X195.735 Y119.47 E13.55804
G1 X202.135 Y119.497 E13.65436
G1 X203.903 Y119.435 E13.68098
G1 X204.133 Y119.431 E13.68444
G1 X218.442 Y119.48 E13.89977
G1 X219.42 Y119.492 E13.91449
G1 X220.769 Y119.793 E13.93529
G1 X220.868 Y119.834 E13.9369
G1 X224.496 Y119.834 E13.9915
G1 X225.87 Y119.993 E14.01231
G1 X227.17 Y120.463 E14.03311
G1 X228.329 Y121.218 E14.05393
G1 X229.425 Y122.334 E14.07747
G1 X230.153 Y123.51 E14.09828
G1 X230.593 Y124.821 E14.11909
G1 X230.722 Y126.061 E14.13785
G1 X230.721 Y134.679 E14.26754
G1 X231.694 Y135.474 E14.28645
G1 X232.15 Y135.995 E14.29686
G1 X232.695 Y136.832 E14.3119
G1 X233.064 Y137.603 E14.32476
G1 X233.424 Y138.938 E14.34557
G1 X233.489 Y139.82 E14.35887
G1 X233.488 Y159.81 E14.65969
G1 X233.329 Y161.184 E14.68051
G1 X232.859 Y162.484 E14.70131
G1 X232.67 Y162.834 E14.70729
G1 X230.729 Y166.16 E14.76525
G1 X230.729 Y173.954 E14.88253
G1 X230.57 Y175.328 E14.90335
G1 X230.1 Y176.628 E14.92415
G1 X229.345 Y177.787 E14.94497
G1 X228.221 Y178.891 E14.96867
G1 X227.045 Y179.619 E14.98949
G1 X225.734 Y180.059 E15.0103
G1 X224.495 Y180.188 E15.02904
G1 X221.939 Y180.188 E15.06751
G1 X217.684 Y180.55 E15.13177
G1 X217.175 Y180.572 E15.13944
G1 X207.681 Y180.572 E15.28231
G1 X202.662 Y180.807 E15.35792
M204 S456
G0 F6000 X202.639 Y180.328
M204 S1425
G1 F1350 X202.049 Y180.32 E15.3668
G1 X201.102 Y180.32 E15.38105
G1 X200.465 Y180.283 E15.39065
G1 X195.516 Y179.708 E15.46563
G1 X194.683 Y179.668 E15.47818
G1 X193.395 Y179.352 E15.49813
G1 X192.22 Y178.738 E15.51808
G1 X191.443 Y178.091 E15.5333
G1 X190.768 Y177.36 E15.54827
G1 X190.081 Y176.226 E15.56822
G1 X189.685 Y174.961 E15.58817
G1 X189.592 Y173.954 E15.60339
G1 X189.592 Y164.558 E15.74478
G1 X188.625 Y163.773 E15.76353
G1 X187.82 Y162.72 E15.78347
G1 X187.313 Y161.582 E15.80222
G1 X187.086 Y160.729 E15.8155
G1 X186.999 Y159.406 E15.83546
G1 X187.231 Y158.1 E15.85542
G1 X187.768 Y156.887 E15.87538
G1 X188.578 Y155.838 E15.89532
G1 X189.615 Y155.012 E15.91527
G1 X190.21 Y154.695 E15.92542
G1 X189.755 Y154.061 E15.93716
G1 X189.209 Y152.852 E15.95713
G1 X188.967 Y151.548 E15.97708
G1 X188.956 Y151.201 E15.98231
G1 X188.956 Y149.079 E16.01424
G1 X189.115 Y147.763 E16.03419
G1 X189.584 Y146.522 E16.05415
G1 X190.218 Y145.579 E16.07125
G1 X189.459 Y145.167 E16.08425
G1 X188.45 Y144.306 E16.10421
G1 X187.676 Y143.229 E16.12417
G1 X187.181 Y141.999 E16.14412
G1 X186.992 Y140.568 E16.16584
G1 X187.032 Y139.154 E16.18713
G1 X187.348 Y137.866 E16.20709
