;FLAVOR:Marlin
;TIME:1117
;Filament used: 0.200476m, 0m
;Layer height: 0.15
;MINX:195.603
;MINY:135.717
;MINZ:0.2
;MAXX:224.165
;MAXY:164.286
;MAXZ:13.55
;Generated with StratosEngine 1.3.0
T0
M82 ;absolute extrusion mode
;Machine Model: Sigma D25 
;Materials used: T0 PLA T1 PLA 
;Extruders used: T0 0.4 T1 0.4 
M141 S40 	;Set chamber temperature 
M140 S60 	;Heat build surface
M104 T0 S205	;Heat extruder 0
M104 T1 S205	;Heat extruder 1
M190 S60 	;Wait until bed temperature reached 
M109 T0 S205	;Heat extruder 0 and wait
M109 T1 S205	;Heat extruder 1 and wait
G21 		;metric values 
G90 		;absolute positioning 
M204 S2500 	;set default acceleration 
M205 X12.5 Y12.5 ;set default jerk 
M107 		;start with the fan off 
G28 X0 Y0 	;move X/Y to min endstops 
G28 Z0 		;move Z to min endstops 
G1 Z5 F200 	;safety Z axis movement
T1
G92 E0 		;set zero the extruded length 
G1 E10 F30
G92 E0 
G1 E-8 F1000 
G92 E0
T0
G92 E0 		;set zero the extruded length 
G1 E10 F30
G92 E0 
G4 S2 		;stabilize hotend 
G1 E-0.5 F1000 
G92 E0

G4 P1
G4 P2
G4 P3

M141 S40
G92 E0
;LAYER_COUNT:90
;LAYER:0
M107
M204 S456
M205 X9.38 Y9.38
G1 F600 Z0.5
G0 F6000 X209.804 Y164.286 Z0.5
M204 S1425
;TYPE:SKIRT
G1 F600 Z0.2
G1 F1050 E0
G1 F1350 X208.825 Y164.245 E0.01229
G1 X207.698 Y164.115 E0.02651
G1 X206.723 Y163.926 E0.03897
G1 X205.66 Y163.653 E0.05273
G1 X204.34 Y163.171 E0.07035
G1 X203.395 Y162.725 E0.08346
G1 X202.381 Y162.149 E0.09808
G1 X201.578 Y161.61 E0.11021
G1 X200.741 Y160.985 E0.12331
G1 X199.784 Y160.116 E0.13952
G1 X198.817 Y159.134 E0.1568
G1 X198.053 Y158.016 E0.17379
G1 X197.452 Y157.043 E0.18813
G1 X197.014 Y156.195 E0.2001
G1 X196.488 Y154.949 E0.21706
G1 X196.171 Y153.986 E0.22977
G1 X195.907 Y152.98 E0.24281
G1 X195.701 Y151.747 E0.25849
G1 X195.624 Y150.82 E0.27015
G1 X195.603 Y149.821 E0.28269
G1 X195.664 Y148.682 E0.29699
G1 X195.797 Y147.594 E0.31073
G1 X196.117 Y146.184 E0.32887
G1 X196.452 Y145.147 E0.34253
G1 X196.914 Y144.004 E0.35799
G1 X197.523 Y142.837 E0.3745
G1 X198.165 Y141.839 E0.38938
G1 X198.891 Y140.875 E0.40452
G1 X199.83 Y139.854 E0.42191
G1 X200.767 Y139.013 E0.4377
G1 X201.617 Y138.346 E0.45125
G1 X202.852 Y137.564 E0.46958
G1 X203.796 Y137.082 E0.48287
G1 X204.954 Y136.59 E0.49865
G1 X206.302 Y136.174 E0.51634
G1 X207.337 Y135.952 E0.52962
G1 X208.581 Y135.776 E0.54537
G1 X209.919 Y135.717 E0.56217
G1 X211.206 Y135.785 E0.57833
G1 X212.214 Y135.903 E0.59106
G1 X213.655 Y136.221 E0.60956
G1 X214.616 Y136.514 E0.62216
G1 X215.753 Y136.914 E0.63728
G1 X216.338 Y137.164 E0.64525
G1 X217.497 Y137.897 E0.66245
G1 X218.63 Y138.705 E0.6799
G1 X219.403 Y139.36 E0.69261
G1 X220.119 Y140.047 E0.70505
G1 X220.783 Y140.781 E0.71746
G1 X221.412 Y141.562 E0.73004
G1 X221.997 Y142.444 E0.74331
G1 X222.843 Y144.022 E0.76576
G1 X223.228 Y144.907 E0.77787
G1 X223.685 Y146.325 E0.79655
G1 X223.914 Y147.361 E0.80986
G1 X224.101 Y148.632 E0.82597
G1 X224.165 Y150.101 E0.8444
G1 X224.125 Y151.059 E0.85643
G1 X223.977 Y152.338 E0.87258
G1 X223.653 Y153.797 E0.89132
G1 X223.35 Y154.751 E0.90387
G1 X222.888 Y155.92 E0.91963
G1 X222.208 Y157.223 E0.93806
G1 X221.642 Y158.103 E0.95119
G1 X220.879 Y159.121 E0.96714
G1 X219.926 Y160.157 E0.98479
G1 X219.147 Y160.867 E0.99801
G1 X218.153 Y161.653 E1.0139
G1 X216.988 Y162.396 E1.03123
G1 X216.024 Y162.892 E1.04482
G1 X214.925 Y163.359 E1.0598
G1 X213.87 Y163.711 E1.07375
G1 X212.288 Y164.071 E1.09409
G1 X211.236 Y164.222 E1.10742
G1 X209.804 Y164.286 E1.12539
M204 S456
G0 F6000 X209.792 Y163.886
M204 S1425
G1 F1350 X208.347 Y163.796 E1.14355
G1 X206.804 Y163.534 E1.16318
G1 X205.786 Y163.274 E1.17635
G1 X204.483 Y162.798 E1.19375
G1 X203.577 Y162.369 E1.20632
G1 X202.604 Y161.816 E1.22036
G1 X201.801 Y161.277 E1.23248
G1 X201.002 Y160.682 E1.24498
G1 X200.056 Y159.822 E1.26101
G1 X199.112 Y158.862 E1.27789
G1 X198.388 Y157.797 E1.29404
G1 X197.793 Y156.834 E1.30824
G1 X197.33 Y155.924 E1.32104
G1 X196.868 Y154.823 E1.33601
G1 X196.555 Y153.873 E1.34856
G1 X196.299 Y152.896 E1.36122
G1 X196.097 Y151.686 E1.37661
G1 X196.024 Y150.812 E1.38761
G1 X196.003 Y149.813 E1.40014
G1 X196.063 Y148.712 E1.41396
G1 X196.19 Y147.671 E1.42712
G1 X196.505 Y146.278 E1.44503
G1 X196.828 Y145.284 E1.45813
G1 X197.273 Y144.179 E1.47307
G1 X197.875 Y143.027 E1.48937
G1 X198.496 Y142.065 E1.50373
G1 X199.192 Y141.138 E1.51827
G1 X200.12 Y140.129 E1.53546
G1 X201.027 Y139.317 E1.55072
G1 X201.842 Y138.677 E1.56372
G1 X203.06 Y137.906 E1.5818
G1 X203.966 Y137.445 E1.59454
G1 X205.084 Y136.968 E1.60979
G1 X206.414 Y136.559 E1.62724
G1 X207.406 Y136.346 E1.63996
G1 X208.609 Y136.175 E1.6552
G1 X209.93 Y136.117 E1.67178
G1 X211.177 Y136.184 E1.68744
G1 X212.151 Y136.298 E1.69974
G1 X213.561 Y136.61 E1.71785
G1 X214.491 Y136.894 E1.73004
G1 X215.618 Y137.29 E1.74502
G1 X216.159 Y137.522 E1.7524
G1 X217.272 Y138.228 E1.76893
G1 X218.396 Y139.029 E1.78624
G1 X219.126 Y139.648 E1.79824
G1 X219.842 Y140.335 E1.81069
G1 X220.48 Y141.042 E1.82263
G1 X221.086 Y141.795 E1.83475
G1 X221.656 Y142.653 E1.84767
G1 X222.485 Y144.2 E1.86968
G1 X222.936 Y145.278 E1.88433
G1 X223.302 Y146.44 E1.89961
G1 X223.521 Y147.434 E1.91237
G1 X223.702 Y148.661 E1.92793
G1 X223.765 Y150.112 E1.94614
G1 X223.715 Y151.156 E1.95925
G1 X223.583 Y152.265 E1.97325
G1 X223.264 Y153.703 E1.99172
G1 X222.975 Y154.61 E2.00366
G1 X222.527 Y155.747 E2.01899
G1 X221.856 Y157.032 E2.03717
G1 X221.313 Y157.875 E2.04974
G1 X220.577 Y158.858 E2.06514
G1 X219.635 Y159.882 E2.08259
G1 X218.887 Y160.564 E2.09528
G1 X217.928 Y161.322 E2.11061
G1 X216.779 Y162.055 E2.1277
G1 X215.853 Y162.531 E2.14076
G1 X214.797 Y162.98 E2.15515
G1 X213.756 Y163.328 E2.16891
G1 X212.213 Y163.678 E2.18876
G1 X211.207 Y163.823 E2.2015
G1 X209.792 Y163.886 E2.21926
M204 S456
G0 F6000 X209.408 Y163.481
M204 S1425
G1 F1350 X208.386 Y163.398 E2.23212
G1 X206.885 Y163.142 E2.25122
G1 X205.913 Y162.894 E2.2638
G1 X204.626 Y162.424 E2.28098
G1 X203.759 Y162.013 E2.29301
G1 X202.827 Y161.484 E2.30645
G1 X202.024 Y160.945 E2.31858
G1 X201.264 Y160.379 E2.33046
G1 X200.328 Y159.529 E2.34632
G1 X199.408 Y158.592 E2.36278
G1 X198.723 Y157.578 E2.37813
G1 X198.135 Y156.626 E2.39216
G1 X197.696 Y155.763 E2.4043
G1 X197.247 Y154.697 E2.41881
G1 X196.939 Y153.761 E2.43117
G1 X196.69 Y152.812 E2.44347
G1 X196.492 Y151.624 E2.45857
G1 X196.424 Y150.803 E2.4689
G1 X196.403 Y149.804 E2.48144
G1 X196.462 Y148.741 E2.49479
G1 X196.582 Y147.748 E2.50733
G1 X196.894 Y146.372 E2.52502
G1 X197.204 Y145.42 E2.53758
G1 X197.633 Y144.354 E2.55199
G1 X198.226 Y143.217 E2.56807
G1 X198.826 Y142.29 E2.58192
G1 X199.493 Y141.401 E2.59585
G1 X200.41 Y140.405 E2.61283
G1 X201.288 Y139.62 E2.6276
G1 X202.067 Y139.008 E2.64002
G1 X203.267 Y138.248 E2.65784
G1 X204.136 Y137.807 E2.67006
G1 X205.214 Y137.347 E2.68476
G1 X206.525 Y136.943 E2.70196
G1 X207.476 Y136.74 E2.71415
G1 X208.636 Y136.574 E2.72885
G1 X209.941 Y136.517 E2.74523
G1 X211.147 Y136.583 E2.76038
G1 X212.088 Y136.693 E2.77226
G1 X213.467 Y136.998 E2.78997
G1 X214.366 Y137.274 E2.80176
G1 X215.483 Y137.667 E2.81661
G1 X216.489 Y138.178 E2.83076
G1 X217.524 Y138.893 E2.84653
G1 X218.493 Y139.618 E2.86171
G1 X218.849 Y139.937 E2.86771
G1 X219.565 Y140.624 E2.88015
G1 X220.248 Y141.387 E2.89299
G1 X220.917 Y142.252 E2.9067
G1 X221.526 Y143.206 E2.9209
G1 X222.126 Y144.378 E2.93741
G1 X222.556 Y145.403 E2.95135
G1 X222.919 Y146.555 E2.96649
G1 X223.128 Y147.506 E2.97871
G1 X223.303 Y148.691 E2.99373
G1 X223.365 Y150.124 E3.01171
G1 X223.317 Y151.114 E3.02414
G1 X223.19 Y152.192 E3.03776
G1 X222.875 Y153.61 E3.05597
G1 X222.319 Y155.217 E3.0773
G1 X221.869 Y156.166 E3.09047
G1 X221.302 Y157.179 E3.10502
G1 X220.513 Y158.298 E3.12219
G1 X219.856 Y159.066 E3.13487
G1 X219.082 Y159.863 E3.1488
G1 X218.003 Y160.768 E3.16646
G1 X217.167 Y161.346 E3.17921
G1 X216.274 Y161.881 E3.19226
G1 X215.055 Y162.45 E3.20913
G1 X213.795 Y162.896 E3.22589
G1 X212.915 Y163.137 E3.23734
G1 X211.545 Y163.382 E3.25479
G1 X210.601 Y163.462 E3.26667
G1 X209.408 Y163.481 E3.28163
M204 S456
G0 F6000 X209.43 Y163.082
M204 S1425
G1 F1350 X208.425 Y163 E3.29428
G1 X206.966 Y162.751 E3.31284
G1 X206.039 Y162.515 E3.32483
G1 X204.769 Y162.051 E3.34179
G1 X203.842 Y161.605 E3.35469
G1 X203.05 Y161.152 E3.36613
G1 X202.247 Y160.613 E3.37826
G1 X201.387 Y159.957 E3.39182
G1 X200.6 Y159.235 E3.40522
G1 X199.705 Y158.323 E3.42124
G1 X199.057 Y157.359 E3.43581
G1 X198.476 Y156.418 E3.44968
G1 X197.762 Y154.922 E3.47046
G1 X197.366 Y153.786 E3.48555
G1 X197.081 Y152.728 E3.49929
G1 X196.887 Y151.563 E3.5141
G1 X196.824 Y150.795 E3.52376
G1 X196.803 Y149.796 E3.53629
G1 X196.861 Y148.771 E3.54917
G1 X196.975 Y147.825 E3.56112
G1 X197.283 Y146.467 E3.57858
G1 X197.58 Y145.556 E3.5906
G1 X197.992 Y144.53 E3.60446
G1 X198.578 Y143.408 E3.62034
G1 X199.156 Y142.516 E3.63366
G1 X199.794 Y141.665 E3.647
G1 X200.7 Y140.68 E3.66379
G1 X201.549 Y139.923 E3.67805
G1 X202.292 Y139.339 E3.6899
G1 X203.475 Y138.59 E3.70746
G1 X204.385 Y138.133 E3.72023
G1 X205.344 Y137.725 E3.7333
G1 X206.637 Y137.327 E3.75026
G1 X207.622 Y137.121 E3.76288
G1 X208.664 Y136.973 E3.77608
G1 X209.952 Y136.917 E3.79225
G1 X211.118 Y136.982 E3.80689
G1 X212.225 Y137.125 E3.82089
G1 X213.373 Y137.387 E3.83566
G1 X214.293 Y137.671 E3.84773
G1 X215.349 Y138.044 E3.86178
G1 X216.264 Y138.509 E3.87465
G1 X217.294 Y139.22 E3.89034
G1 X218.229 Y139.918 E3.90498
G1 X218.572 Y140.226 E3.91076
G1 X219.288 Y140.913 E3.9232
G1 X219.938 Y141.641 E3.93544
G1 X220.583 Y142.472 E3.94863
G1 X221.185 Y143.416 E3.96267
G1 X221.768 Y144.555 E3.97872
G1 X222.176 Y145.528 E3.99195
G1 X222.536 Y146.671 E4.00698
G1 X222.749 Y147.665 E4.01972
G1 X222.904 Y148.72 E4.0331
G1 X222.965 Y150.135 E4.05086
G1 X222.919 Y151.072 E4.06262
G1 X222.797 Y152.119 E4.07584
G1 X222.486 Y153.516 E4.09379
G1 X221.945 Y155.076 E4.11449
G1 X221.513 Y155.983 E4.12709
G1 X220.969 Y156.958 E4.14109
G1 X220.189 Y158.062 E4.15804
G1 X219.565 Y158.792 E4.17009
G1 X218.815 Y159.565 E4.18359
G1 X217.751 Y160.458 E4.20101
G1 X216.957 Y161.006 E4.21311
G1 X216.091 Y161.525 E4.22577
G1 X214.892 Y162.085 E4.24237
G1 X213.667 Y162.517 E4.25866
G1 X212.84 Y162.744 E4.26941
G1 X211.482 Y162.987 E4.28671
G1 X210.504 Y163.065 E4.29902
G1 X209.43 Y163.082 E4.31249
M204 S456
G0 F6000 X209.758 Y162.687
M204 S1425
G1 F1350 X208.465 Y162.602 E4.32874
G1 X207.046 Y162.359 E4.34679
G1 X205.884 Y162.041 E4.3619
G1 X204.912 Y161.677 E4.37491
G1 X204.034 Y161.254 E4.38713
G1 X203.273 Y160.82 E4.39812
G1 X202.367 Y160.21 E4.41182
G1 X201.575 Y159.59 E4.42443
G1 X200.871 Y158.942 E4.43643
G1 X200.003 Y158.054 E4.452
G1 X199.392 Y157.14 E4.46579
G1 X198.818 Y156.21 E4.47949
G1 X198.128 Y154.76 E4.49963
G1 X197.745 Y153.66 E4.51424
G1 X197.472 Y152.644 E4.52743
G1 X197.282 Y151.502 E4.54195
G1 X197.224 Y150.787 E4.55095
G1 X197.203 Y149.788 E4.56348
G1 X197.26 Y148.801 E4.57587
G1 X197.418 Y147.642 E4.59054
G1 X197.672 Y146.561 E4.60447
G1 X197.985 Y145.615 E4.61696
G1 X198.352 Y144.705 E4.62927
G1 X198.93 Y143.598 E4.64493
G1 X199.486 Y142.742 E4.65773
G1 X200.095 Y141.928 E4.67048
G1 X200.99 Y140.956 E4.68705
G1 X201.81 Y140.227 E4.70081
G1 X202.751 Y139.51 E4.71564
G1 X203.683 Y138.932 E4.72939
G1 X204.547 Y138.499 E4.74151
G1 X205.474 Y138.103 E4.75416
G1 X206.749 Y137.711 E4.77088
G1 X207.684 Y137.517 E4.78286
G1 X208.692 Y137.372 E4.79563
G1 X209.963 Y137.316 E4.81158
G1 X211.089 Y137.381 E4.82573
G1 X212.143 Y137.516 E4.83905
G1 X213.279 Y137.776 E4.85367
G1 X214.51 Y138.169 E4.86987
G1 X215.612 Y138.59 E4.88467
G1 X216.596 Y139.219 E4.89931
G1 X217.693 Y140.001 E4.9162
G1 X218.295 Y140.514 E4.92612
G1 X219.011 Y141.201 E4.93857
G1 X219.967 Y142.307 E4.9569
G1 X220.575 Y143.19 E4.97034
G1 X221.409 Y144.733 E4.99234
G1 X221.796 Y145.654 E5.00487
G1 X222.153 Y146.786 E5.01975
G1 X222.354 Y147.729 E5.03184
G1 X222.505 Y148.75 E5.04479
G1 X222.566 Y150.147 E5.06232
G1 X222.444 Y151.765 E5.08267
G1 X222.272 Y152.696 E5.09454
G1 X222.01 Y153.724 E5.10785
G1 X221.571 Y154.935 E5.124
G1 X221.157 Y155.801 E5.13604
G1 X220.635 Y156.737 E5.14948
G1 X219.866 Y157.827 E5.16621
G1 X218.763 Y159.058 E5.18693
G1 X218.035 Y159.712 E5.1992
G1 X217.254 Y160.329 E5.21169
G1 X216.15 Y161.033 E5.22811
G1 X215.267 Y161.48 E5.24052
G1 X214.413 Y161.843 E5.25215
G1 X213.414 Y162.178 E5.26537
G1 X211.989 Y162.499 E5.28369
G1 X210.779 Y162.651 E5.29898
G1 X209.758 Y162.687 E5.31179
M204 S456
G0 F6000 X209.746 Y162.287
M204 S1425
G1 F1350 X208.504 Y162.204 E5.3274
G1 X207.127 Y161.967 E5.34492
G1 X206.01 Y161.662 E5.35944
G1 X205.055 Y161.303 E5.37224
G1 X203.742 Y160.638 E5.39069
G1 X203.496 Y160.488 E5.39431
G1 X202.693 Y159.949 E5.40644
G1 X201.909 Y159.351 E5.4188
G1 X201.143 Y158.648 E5.43184
G1 X200.638 Y158.164 E5.44061
G1 X200.175 Y157.607 E5.44969
G1 X199.553 Y156.647 E5.46404
G1 X199.026 Y155.76 E5.47698
G1 X198.494 Y154.599 E5.49299
G1 X198.125 Y153.534 E5.50713
G1 X197.863 Y152.56 E5.51977
G1 X197.678 Y151.441 E5.534
G1 X197.624 Y150.778 E5.54234
G1 X197.603 Y149.779 E5.55487
G1 X197.659 Y148.831 E5.56678
G1 X197.811 Y147.719 E5.58085
G1 X198.06 Y146.655 E5.59456
G1 X198.358 Y145.76 E5.60639
G1 X198.711 Y144.88 E5.61828
G1 X199.282 Y143.789 E5.63372
G1 X199.816 Y142.968 E5.646
G1 X200.396 Y142.191 E5.65816
G1 X201.28 Y141.231 E5.67453
G1 X202.07 Y140.53 E5.68777
G1 X202.976 Y139.841 E5.70204
G1 X203.89 Y139.274 E5.71553
G1 X205.349 Y138.581 E5.73579
G1 X206.861 Y138.095 E5.7557
G1 X208.447 Y137.802 E5.77593
G1 X209.974 Y137.716 E5.79511
G1 X211.06 Y137.78 E5.80875
G1 X212.06 Y137.907 E5.82139
G1 X213.185 Y138.165 E5.83587
G1 X214.38 Y138.547 E5.8516
G1 X215.433 Y138.948 E5.86573
G1 X216.371 Y139.55 E5.87971
G1 X217.459 Y140.326 E5.89647
G1 X218.018 Y140.803 E5.90568
G1 X218.734 Y141.49 E5.91812
G1 X219.658 Y142.56 E5.93585
G1 X220.241 Y143.409 E5.94877
G1 X221.051 Y144.911 E5.97017
G1 X221.416 Y145.779 E5.98198
G1 X221.77 Y146.901 E5.99673
G1 X222.074 Y148.506 E6.01722
G1 X222.166 Y150.158 E6.03796
G1 X222.047 Y151.723 E6.05765
G1 X221.708 Y153.329 E6.07823
G1 X221.196 Y154.794 E6.09769
G1 X220.769 Y155.68 E6.11003
G1 X220.302 Y156.516 E6.12203
G1 X219.542 Y157.592 E6.13855
G1 X218.472 Y158.783 E6.15863
G1 X217.246 Y159.837 E6.17891
G1 X215.94 Y160.692 E6.19848
G1 X214.566 Y161.354 E6.21761
G1 X213.411 Y161.759 E6.23296
G1 X211.914 Y162.106 E6.25223
G1 X210.75 Y162.252 E6.26694
G1 X209.746 Y162.287 E6.27954
M204 S456
G1 F1800 E2.27954
G0 F6000 X209.666 Y158.898
M204 S1425
;TYPE:SUPPORT
G1 F1050 E6.27954
G1 F1350 X208.526 Y158.799 E6.29389
G1 X208.488 Y158.793 E6.29437
G1 X208.175 Y158.723 E6.29839
G1 X209.013 Y158.621 E6.30898
G1 X209.837 Y158.251 E6.32031
G1 X210.517 Y157.643 E6.33174
G1 X211.01 Y156.766 E6.34436
G1 X211.18 Y155.868 E6.35582
G1 X211.072 Y154.981 E6.36703
G1 X210.703 Y154.159 E6.37833
G1 X210.103 Y153.486 E6.38963
G1 X209.317 Y153.018 E6.40111
G1 X208.321 Y152.808 E6.41387
G1 X207.316 Y152.953 E6.4266
G1 X206.502 Y153.362 E6.43803
G1 X205.856 Y153.992 E6.44934
G1 X205.432 Y154.784 E6.46061
G1 X205.264 Y155.673 E6.47195
G1 X205.372 Y156.561 E6.48317
G1 X205.746 Y157.393 E6.49461
G1 X206.432 Y158.131 E6.50725
G1 X206.833 Y158.345 E6.51295
G1 X206.28 Y158.143 E6.52033
G1 X205.266 Y157.608 E6.53471
G1 X204.26 Y156.902 E6.55012
G1 X203.622 Y156.312 E6.56102
G1 X202.988 Y155.72 E6.5719
G1 X202.061 Y154.248 E6.59371
G1 X201.572 Y153.182 E6.60842
G1 X201.221 Y152.059 E6.62317
G1 X201.03 Y150.938 E6.63743
G1 X200.983 Y149.81 E6.65159
G1 X200.983 Y149.767 E6.65213
G1 X201.088 Y148.629 E6.66646
G1 X201.183 Y148.206 E6.6719
G1 X201.244 Y149.02 E6.68213
G1 X201.637 Y149.943 E6.69471
G1 X202.25 Y150.628 E6.70624
G1 X203.022 Y151.085 E6.71749
G1 X203.908 Y151.292 E6.7289
G1 X204.907 Y151.196 E6.74149
G1 X205.74 Y150.82 E6.75295
G1 X206.412 Y150.22 E6.76425
G1 X206.877 Y149.437 E6.77567
G1 X207.085 Y148.45 E6.78832
G1 X206.978 Y147.548 E6.79971
G1 X206.606 Y146.726 E6.81102
G1 X206.006 Y146.054 E6.82232
G1 X205.226 Y145.592 E6.83369
G1 X204.316 Y145.386 E6.84539
G1 X203.44 Y145.459 E6.85641
G1 X202.523 Y145.85 E6.86891
G1 X201.842 Y146.459 E6.88037
G1 X201.531 Y146.983 E6.88801
