;FLAVOR:Marlin
;TIME:1719
;Filament used: 0m, 0.452081m
;Layer height: 0.2
;MINX:194.972
;MINY:134.619
;MINZ:0.2
;MAXX:225.377
;MAXY:165.358
;MAXZ:18.4
;Generated with StratosEngine 1.3.0
T1
M82 ;absolute extrusion mode
;Machine Model: Sigma D25 
;Materials used:  T1 PLA 
;Extruders used:  T1 0.4 
M141 S40 	;Set chamber temperature 
M140 S70 	;Heat build surface
M104 T1 S210	;Heat extruder 1
M190 S70 	;Wait until bed temperature reached 
M109 T1 S210	;Heat extruder 1 and wait
G21 		;metric values 
G90 		;absolute positioning 
M204 S2500 	;set default acceleration 
M205 X12.5 Y12.5 ;set default jerk 
M107 		;start with the fan off 
G28 X0 Y0 	;move X/Y to min endstops 
G28 Z0 		;move Z to min endstops 
G1 Z5 F200 	;safety Z axis movement

T1
G92 E0 		;set zero the extruded length 
G1 E10 F30
G92 E0 
G4 S2 		;stabilize hotend 
G1 E-0.5 F1000 
G92 E0

G4 P1
G4 P2
G4 P3

M141 S40
G92 E0
;LAYER_COUNT:92
;LAYER:0
M107
M204 S456
M205 X9.38 Y9.38
G1 F600 Z0.6
G0 F6000 X209.422 Y165.358 Z0.6
M204 S1425
;TYPE:SKIRT
G1 F600 Z0.2
G1 F1050 E0
G1 F1350 X207.834 Y165.215 E0.02399
G1 X206.826 Y165.058 E0.03935
G1 X206.126 Y164.871 E0.05025
G1 X204.607 Y164.39 E0.07423
G1 X203.072 Y163.722 E0.09942
G1 X201.866 Y163.039 E0.12027
G1 X200.789 Y162.305 E0.13989
G1 X199.822 Y161.523 E0.1586
G1 X198.681 Y160.391 E0.18279
G1 X197.727 Y159.229 E0.20541
G1 X196.828 Y157.939 E0.22908
G1 X196.192 Y156.76 E0.24923
G1 X195.627 Y155.459 E0.27058
G1 X195.144 Y153.945 E0.29449
G1 X194.972 Y152.365 E0.31841
G1 X195.12 Y150.782 E0.34234
G1 X195.325 Y149.977 E0.35484
G1 X195.07 Y148.885 E0.37171
G1 X194.993 Y147.297 E0.39564
G1 X195.233 Y145.726 E0.41955
G1 X195.54 Y144.786 E0.43443
G1 X195.776 Y144.201 E0.44393
G1 X196.192 Y143.242 E0.45966
G1 X196.992 Y141.816 E0.48426
G1 X197.908 Y140.515 E0.50821
G1 X198.634 Y139.628 E0.52545
G1 X199.006 Y139.259 E0.53334
G1 X199.99 Y138.343 E0.55357
G1 X200.864 Y137.638 E0.57047
G1 X201.734 Y137.033 E0.58641
G1 X202.875 Y136.373 E0.60625
G1 X203.839 Y135.918 E0.62229
G1 X204.834 Y135.528 E0.63837
G1 X206.005 Y135.158 E0.65685
G1 X207.359 Y134.858 E0.67772
G1 X208.69 Y134.683 E0.69793
G1 X209.483 Y134.619 E0.7099
G1 X210.868 Y134.659 E0.73075
G1 X211.397 Y134.702 E0.73874
G1 X212.454 Y134.822 E0.75474
G1 X214.008 Y135.158 E0.77867
G1 X215.463 Y135.799 E0.8026
G1 X216.76 Y136.717 E0.82651
G1 X217.361 Y137.301 E0.83912
G1 X218.423 Y137.622 E0.85581
G1 X219.838 Y138.347 E0.87974
G1 X221.079 Y139.339 E0.90365
G1 X221.758 Y140.095 E0.91894
G1 X222.136 Y140.58 E0.92819
G1 X222.759 Y141.422 E0.94396
G1 X223.041 Y141.83 E0.95142
G1 X223.593 Y142.827 E0.96857
G1 X224.262 Y144.271 E0.99252
G1 X224.619 Y145.186 E1.0073
G1 X224.817 Y145.915 E1.01867
G1 X225.16 Y147.466 E1.04257
G1 X225.346 Y148.952 E1.06511
G1 X225.377 Y149.946 E1.08007
G1 X225.314 Y151.236 E1.09951
G1 X225.108 Y152.816 E1.12348
G1 X224.932 Y153.737 E1.1376
G1 X224.664 Y154.596 E1.15114
G1 X224.135 Y156.007 E1.17381
G1 X223.452 Y157.458 E1.19795
G1 X222.766 Y158.568 E1.21758
G1 X221.922 Y159.711 E1.23896
G1 X220.855 Y160.888 E1.26287
G1 X219.573 Y161.829 E1.2868
G1 X218.13 Y162.494 E1.31071
G1 X217.319 Y162.722 E1.32339
G1 X216.496 Y163.492 E1.34035
G1 X215.159 Y164.351 E1.36426
G1 X213.678 Y164.927 E1.38818
G1 X212.752 Y165.125 E1.40243
G1 X212.093 Y165.219 E1.41244
G1 X211.057 Y165.338 E1.42814
G1 X209.422 Y165.358 E1.45274
M204 S456
G0 F6000 X209.465 Y164.88
M204 S1425
G1 F1350 X207.877 Y164.737 E1.47674
G1 X206.93 Y164.59 E1.49116
G1 X206.271 Y164.414 E1.50142
G1 X204.752 Y163.933 E1.5254
G1 X203.309 Y163.304 E1.54909
G1 X202.103 Y162.621 E1.56995
G1 X201.091 Y161.932 E1.58837
G1 X200.124 Y161.15 E1.60708
G1 X199.052 Y160.086 E1.62981
G1 X198.098 Y158.924 E1.65244
G1 X197.23 Y157.677 E1.6753
G1 X196.633 Y156.569 E1.69424
G1 X196.068 Y155.268 E1.71559
G1 X195.604 Y153.799 E1.73877
G1 X195.452 Y152.266 E1.76195
G1 X195.619 Y150.735 E1.78513
G1 X195.826 Y149.976 E1.79697
G1 X195.535 Y148.743 E1.81603
G1 X195.479 Y147.203 E1.83922
G1 X195.742 Y145.686 E1.86239
G1 X196.126 Y144.61 E1.87958
G1 X196.217 Y144.392 E1.88314
G1 X196.633 Y143.433 E1.89887
G1 X197.385 Y142.093 E1.92199
G1 X198.301 Y140.792 E1.94593
G1 X198.983 Y139.958 E1.96215
G1 X199.333 Y139.61 E1.96957
G1 X200.317 Y138.694 E1.9898
G1 X201.138 Y138.032 E2.00567
G1 X202.008 Y137.427 E2.02162
G1 X203.08 Y136.807 E2.04026
G1 X204.044 Y136.352 E2.0563
G1 X204.978 Y135.986 E2.07139
G1 X206.149 Y135.616 E2.08987
G1 X207.421 Y135.333 E2.10948
G1 X208.752 Y135.158 E2.12969
G1 X209.521 Y135.098 E2.14129
G1 X210.846 Y135.139 E2.16124
G1 X211.343 Y135.178 E2.16874
G1 X212.4 Y135.298 E2.18475
G1 X213.905 Y135.63 E2.20795
G1 X215.308 Y136.264 E2.23111
G1 X216.552 Y137.173 E2.2543
G1 X217.109 Y137.736 E2.26622
G1 X218.314 Y138.095 E2.28514
G1 X219.676 Y138.815 E2.30832
G1 X220.861 Y139.8 E2.33151
G1 X221.612 Y140.685 E2.34898
G1 X221.75 Y140.866 E2.3524
G1 X222.373 Y141.708 E2.36816
G1 X222.639 Y142.092 E2.37519
G1 X223.158 Y143.028 E2.3913
G1 X223.827 Y144.472 E2.41525
G1 X224.17 Y145.357 E2.42953
G1 X224.348 Y146.018 E2.43983
G1 X224.691 Y147.569 E2.46374
G1 X224.866 Y148.967 E2.48494
G1 X224.897 Y149.961 E2.4999
G1 X224.838 Y151.174 E2.51818
G1 X224.632 Y152.754 E2.54216
G1 X224.214 Y154.428 E2.56812
G1 X223.685 Y155.839 E2.5908
G1 X223.024 Y157.24 E2.61411
G1 X222.38 Y158.282 E2.63254
G1 X221.536 Y159.425 E2.65393
G1 X220.498 Y160.563 E2.6771
G1 X219.247 Y161.463 E2.7003
G1 X217.838 Y162.086 E2.72348
G1 X217.068 Y162.288 E2.73546
G1 X216.141 Y163.16 E2.75461
G1 X214.835 Y163.977 E2.77779
G1 X213.389 Y164.507 E2.80097
G1 X212.304 Y164.707 E2.81757
G1 X212.038 Y164.742 E2.82161
G1 X211.002 Y164.861 E2.8373
G1 X209.465 Y164.88 E2.86043
M204 S456
G0 F6000 X209.508 Y164.402
M204 S1425
G1 F1350 X207.92 Y164.259 E2.88443
G1 X206.416 Y163.956 E2.90751
G1 X204.897 Y163.475 E2.93149
G1 X203.545 Y162.886 E2.95368
G1 X202.339 Y162.203 E2.97454
G1 X201.393 Y161.559 E2.99176
G1 X200.426 Y160.777 E3.01048
G1 X199.423 Y159.781 E3.03175
G1 X198.469 Y158.619 E3.05437
G1 X197.632 Y157.414 E3.07645
G1 X197.073 Y156.377 E3.09418
G1 X196.508 Y155.076 E3.11552
G1 X196.064 Y153.654 E3.13794
G1 X195.933 Y152.17 E3.16036
G1 X196.121 Y150.693 E3.18277
G1 X196.329 Y149.986 E3.19386
G1 X196 Y148.603 E3.21525
G1 X195.967 Y147.114 E3.23766
G1 X196.252 Y145.652 E3.26008
G1 X196.657 Y144.583 E3.27728
G1 X197.073 Y143.624 E3.29301
G1 X197.777 Y142.369 E3.31466
G1 X198.693 Y141.068 E3.33861
G1 X199.331 Y140.288 E3.35377
G1 X199.66 Y139.962 E3.36074
G1 X200.644 Y139.046 E3.38097
G1 X201.412 Y138.426 E3.39582
G1 X202.282 Y137.821 E3.41177
G1 X203.285 Y137.241 E3.42921
G1 X204.249 Y136.786 E3.44525
G1 X205.123 Y136.443 E3.45938
G1 X206.294 Y136.073 E3.47786
G1 X207.484 Y135.809 E3.4962
G1 X208.815 Y135.634 E3.5164
G1 X209.558 Y135.577 E3.52762
G1 X210.824 Y135.618 E3.54668
G1 X211.289 Y135.655 E3.5537
G1 X212.346 Y135.775 E3.56971
G1 X213.8 Y136.101 E3.59213
G1 X215.151 Y136.728 E3.61454
G1 X216.338 Y137.629 E3.63697
G1 X216.85 Y138.167 E3.64814
G1 X218.203 Y138.569 E3.66938
G1 X219.51 Y139.283 E3.6918
G1 X220.636 Y140.259 E3.71422
G1 X221.235 Y140.982 E3.72835
G1 X221.364 Y141.151 E3.73155
G1 X221.987 Y141.993 E3.74731
G1 X222.237 Y142.354 E3.75392
G1 X222.722 Y143.23 E3.76899
G1 X223.391 Y144.674 E3.79294
G1 X223.88 Y146.122 E3.81593
G1 X224.223 Y147.673 E3.83984
G1 X224.387 Y148.982 E3.85969
G1 X224.418 Y149.976 E3.87466
G1 X224.362 Y151.112 E3.89177
G1 X224.156 Y152.692 E3.91575
G1 X223.765 Y154.259 E3.94005
G1 X223.236 Y155.67 E3.96273
G1 X222.597 Y157.022 E3.98523
G1 X221.994 Y157.997 E4.00249
G1 X221.15 Y159.14 E4.02387
G1 X220.142 Y160.237 E4.04629
G1 X218.924 Y161.094 E4.0687
G1 X217.551 Y161.673 E4.09112
G1 X216.824 Y161.848 E4.10237
G1 X215.788 Y162.827 E4.12382
G1 X214.514 Y163.598 E4.14623
G1 X213.105 Y164.082 E4.16865
G1 X211.983 Y164.266 E4.18576
G1 X210.947 Y164.385 E4.20146
G1 X209.508 Y164.402 E4.22311
M204 S456
G0 F6000 X209.551 Y163.924
M204 S1425
G1 F1350 X207.963 Y163.781 E4.2471
G1 X206.561 Y163.499 E4.26863
G1 X205.042 Y163.018 E4.2926
G1 X203.782 Y162.469 E4.31329
G1 X202.576 Y161.786 E4.33414
G1 X201.694 Y161.186 E4.35019
G1 X200.727 Y160.404 E4.36891
G1 X199.794 Y159.477 E4.3887
G1 X198.84 Y158.315 E4.41133
G1 X198.033 Y157.151 E4.43264
G1 X197.513 Y156.186 E4.44914
G1 X196.948 Y154.885 E4.47048
G1 X196.526 Y153.512 E4.4921
G1 X196.416 Y152.079 E4.51372
G1 X196.625 Y150.657 E4.53535
G1 X196.842 Y149.984 E4.54599
G1 X196.591 Y149.175 E4.55874
G1 X196.422 Y147.748 E4.58036
G1 X196.572 Y146.318 E4.602
G1 X196.878 Y145.317 E4.61775
G1 X197.097 Y144.774 E4.62656
G1 X197.513 Y143.815 E4.6423
G1 X198.17 Y142.645 E4.66249
G1 X199.086 Y141.344 E4.68643
G1 X199.68 Y140.618 E4.70055
G1 X199.987 Y140.313 E4.70706
G1 X200.971 Y139.397 E4.72729
G1 X201.686 Y138.82 E4.74112
G1 X202.556 Y138.215 E4.75706
G1 X203.49 Y137.675 E4.7733
G1 X204.454 Y137.22 E4.78934
G1 X205.268 Y136.901 E4.8025
G1 X206.439 Y136.531 E4.82098
G1 X207.546 Y136.285 E4.83804
G1 X208.877 Y136.11 E4.85824
G1 X209.595 Y136.056 E4.86908
G1 X210.802 Y136.098 E4.88725
G1 X211.235 Y136.132 E4.89379
G1 X212.292 Y136.252 E4.9098
G1 X213.693 Y136.572 E4.93142
G1 X214.99 Y137.192 E4.95306
G1 X216.117 Y138.083 E4.97468
G1 X216.594 Y138.611 E4.98538
G1 X217.413 Y138.795 E4.99802
G1 X218.734 Y139.361 E5.01964
G1 X219.898 Y140.204 E5.04127
G1 X220.627 Y140.986 E5.05736
G1 X220.978 Y141.437 E5.06596
G1 X221.601 Y142.279 E5.08172
G1 X222.287 Y143.432 E5.10191
G1 X222.956 Y144.876 E5.12586
G1 X223.411 Y146.226 E5.1473
G1 X223.754 Y147.777 E5.1712
G1 X223.907 Y148.997 E5.18971
G1 X223.938 Y149.991 E5.20467
G1 X223.886 Y151.05 E5.22063
G1 X223.68 Y152.63 E5.2446
G1 X223.316 Y154.091 E5.26726
G1 X222.787 Y155.502 E5.28994
G1 X222.169 Y156.804 E5.31163
G1 X221.608 Y157.712 E5.32769
G1 X220.764 Y158.855 E5.34907
G1 X219.787 Y159.91 E5.37071
G1 X218.602 Y160.723 E5.39233
G1 X217.267 Y161.255 E5.41396
G1 X216.566 Y161.405 E5.42475
G1 X215.989 Y162.029 E5.43754
G1 X214.836 Y162.888 E5.45917
G1 X213.522 Y163.471 E5.48081
G1 X212.536 Y163.701 E5.49604
G1 X211.928 Y163.789 E5.50529
G1 X210.892 Y163.908 E5.52098
G1 X209.551 Y163.924 E5.54116
M204 S456
G0 F6000 X209.594 Y163.446
M204 S1425
G1 F1350 X208.006 Y163.303 E5.56515
G1 X206.706 Y163.041 E5.58511
G1 X205.187 Y162.56 E5.60909
G1 X204.018 Y162.051 E5.62828
G1 X202.812 Y161.368 E5.64913
G1 X201.996 Y160.812 E5.66399
G1 X201.029 Y160.03 E5.68271
G1 X200.165 Y159.172 E5.70103
G1 X199.211 Y158.01 E5.72365
G1 X198.435 Y156.888 E5.74418
G1 X197.954 Y155.995 E5.75945
G1 X197.389 Y154.694 E5.78079
G1 X196.988 Y153.371 E5.80159
G1 X196.9 Y151.991 E5.8224
G1 X197.131 Y150.627 E5.84322
G1 X197.367 Y149.997 E5.85335
G1 X197.047 Y149.015 E5.86889
G1 X196.902 Y147.64 E5.88969
G1 X197.077 Y146.268 E5.91051
G1 X197.465 Y145.141 E5.92845
G1 X197.538 Y144.965 E5.93131
G1 X197.954 Y144.006 E5.94704
G1 X198.562 Y142.922 E5.96575
G1 X199.478 Y141.621 E5.98969
G1 X200.314 Y140.664 E6.00881
G1 X201.298 Y139.748 E6.02904
G1 X201.96 Y139.214 E6.04184
G1 X202.83 Y138.609 E6.05779
G1 X203.695 Y138.109 E6.07282
G1 X204.659 Y137.654 E6.08887
G1 X205.412 Y137.359 E6.10104
G1 X206.583 Y136.989 E6.11952
G1 X207.609 Y136.761 E6.13533
G1 X208.94 Y136.586 E6.15553
G1 X209.631 Y136.536 E6.16596
G1 X210.78 Y136.577 E6.18326
G1 X211.181 Y136.609 E6.18931
G1 X212.238 Y136.729 E6.20532
G1 X213.585 Y137.043 E6.22614
G1 X214.824 Y137.656 E6.24694
G1 X215.89 Y138.536 E6.26774
G1 X216.322 Y139.059 E6.27795
G1 X217.324 Y139.27 E6.29336
G1 X218.588 Y139.831 E6.31417
G1 X219.69 Y140.666 E6.33497
G1 X220.481 Y141.576 E6.35312
G1 X220.592 Y141.722 E6.35588
G1 X221.215 Y142.564 E6.37164
G1 X221.851 Y143.634 E6.39037
G1 X222.52 Y145.078 E6.41432
G1 X222.942 Y146.329 E6.43419
G1 X223.285 Y147.88 E6.45809
G1 X223.427 Y149.012 E6.47526
G1 X223.458 Y150.006 E6.49023
G1 X223.41 Y150.988 E6.50502
G1 X223.204 Y152.568 E6.529
G1 X222.866 Y153.922 E6.55
G1 X222.337 Y155.333 E6.57268
G1 X221.741 Y156.587 E6.59357
G1 X221.222 Y157.427 E6.60843
G1 X220.378 Y158.57 E6.62981
G1 X219.434 Y159.58 E6.65062
G1 X218.283 Y160.348 E6.67144
G1 X216.988 Y160.831 E6.69224
G1 X216.315 Y160.943 E6.7025
G1 X215.622 Y161.714 E6.7181
G1 X214.503 Y162.526 E6.73891
G1 X213.227 Y163.059 E6.75972
G1 X212.088 Y163.283 E6.77719
G1 X211.874 Y163.312 E6.78044
G1 X210.838 Y163.431 E6.79613
G1 X209.594 Y163.446 E6.81485
M204 S456
G0 F6000 X209.637 Y162.968
M204 S1425
G1 F1350 X208.049 Y162.825 E6.83885
G1 X206.851 Y162.583 E6.85724
G1 X205.332 Y162.102 E6.88122
G1 X204.255 Y161.633 E6.89889
G1 X203.049 Y160.95 E6.91975
G1 X202.298 Y160.439 E6.93342
G1 X201.331 Y159.657 E6.95213
G1 X200.536 Y158.868 E6.96899
G1 X199.582 Y157.706 E6.99161
G1 X198.837 Y156.626 E7.01136
G1 X198.394 Y155.804 E7.02541
G1 X197.829 Y154.503 E7.04675
G1 X197.451 Y153.232 E7.06671
G1 X197.386 Y151.907 E7.08667
G1 X197.64 Y150.606 E7.10662
G1 X197.882 Y149.986 E7.11663
G1 X197.503 Y148.857 E7.13456
G1 X197.385 Y147.537 E7.1545
G1 X197.584 Y146.226 E7.17445
G1 X197.911 Y145.318 E7.18898
G1 X197.978 Y145.156 E7.19161
G1 X198.394 Y144.197 E7.20735
G1 X198.954 Y143.198 E7.22458
G1 X199.87 Y141.897 E7.24852
G1 X200.641 Y141.016 E7.26614
G1 X201.625 Y140.1 E7.28637
G1 X202.234 Y139.608 E7.29815
G1 X203.104 Y139.003 E7.3141
G1 X203.9 Y138.543 E7.32793
G1 X204.864 Y138.088 E7.34398
G1 X205.557 Y137.816 E7.35518
G1 X206.728 Y137.446 E7.37366
G1 X207.671 Y137.237 E7.38819
G1 X209.002 Y137.062 E7.4084
G1 X209.976 Y137.021 E7.42307
G1 X211.127 Y137.086 E7.44042
G1 X212.184 Y137.206 E7.45642
G1 X213.474 Y137.513 E7.47638
G1 X214.653 Y138.119 E7.49633
G1 X215.655 Y138.988 E7.51629
G1 X216.072 Y139.511 E7.52635
G1 X217.233 Y139.745 E7.54417
G1 X218.437 Y140.301 E7.56413
G1 X219.474 Y141.127 E7.58408
G1 X220.104 Y141.873 E7.59878
G1 X220.206 Y142.008 E7.60132
G1 X220.829 Y142.85 E7.61708
G1 X221.416 Y143.836 E7.63435
G1 X222.085 Y145.28 E7.6583
G1 X222.474 Y146.433 E7.67661
G1 X222.817 Y147.984 E7.70052
G1 X222.947 Y149.027 E7.71633
G1 X222.978 Y150.021 E7.7313
G1 X222.934 Y150.926 E7.74493
G1 X222.728 Y152.506 E7.76891
G1 X222.417 Y153.754 E7.78827
G1 X221.888 Y155.165 E7.81094
G1 X221.314 Y156.369 E7.83102
G1 X220.836 Y157.142 E7.84469
G1 X219.992 Y158.285 E7.86607
G1 X219.081 Y159.249 E7.88603
G1 X217.968 Y159.969 E7.90598
G1 X216.714 Y160.402 E7.92595
G1 X216.049 Y160.503 E7.93607
G1 X215.258 Y161.397 E7.95403
G1 X214.173 Y162.159 E7.97398
G1 X212.937 Y162.641 E7.99395
G1 X211.819 Y162.835 E8.01102
G1 X210.783 Y162.954 E8.02671
G1 X209.637 Y162.968 E8.04396
M204 S456
G0 F6000 X209.68 Y162.49
M204 S1425
G1 F1350 X208.092 Y162.347 E8.06796
G1 X206.996 Y162.126 E8.08478
G1 X205.477 Y161.645 E8.10876
G1 X204.491 Y161.216 E8.12494
G1 X203.285 Y160.533 E8.1458
G1 X202.6 Y160.066 E8.15827
G1 X201.633 Y159.284 E8.17699
G1 X200.907 Y158.563 E8.19238
G1 X199.953 Y157.401 E8.21501
G1 X199.239 Y156.363 E8.23397
G1 X198.834 Y155.613 E8.24679
G1 X198.269 Y154.312 E8.26814
G1 X197.915 Y153.095 E8.28721
G1 X197.874 Y151.829 E8.30627
G1 X198.151 Y150.593 E8.32533
G1 X198.409 Y149.992 E8.33518
G1 X197.961 Y148.702 E8.35573
G1 X197.869 Y147.439 E8.37478
G1 X198.095 Y146.192 E8.39385
G1 X198.418 Y145.347 E8.40747
G1 X198.834 Y144.388 E8.4232
G1 X199.347 Y143.474 E8.43897
G1 X200.263 Y142.173 E8.46291
G1 X200.968 Y141.367 E8.47903
G1 X201.952 Y140.451 E8.49926
G1 X202.509 Y140.002 E8.51003
G1 X203.379 Y139.397 E8.52597
G1 X204.105 Y138.977 E8.53859
G1 X205.069 Y138.522 E8.55463
G1 X205.702 Y138.274 E8.56487
G1 X206.873 Y137.904 E8.58335
G1 X207.734 Y137.713 E8.59662
G1 X209.065 Y137.538 E8.61682
G1 X209.954 Y137.5 E8.63021
G1 X211.073 Y137.563 E8.64708
G1 X212.13 Y137.683 E8.66308
G1 X213.36 Y137.983 E8.68214
G1 X214.477 Y138.581 E8.7012
G1 X215.41 Y139.438 E8.72027
G1 X215.806 Y139.964 E8.73017
G1 X217.139 Y140.219 E8.7506
G1 X218.28 Y140.769 E8.76966
G1 X219.248 Y141.587 E8.78873
G1 X219.821 Y142.293 E8.80241
G1 X220.444 Y143.135 E8.81818
G1 X220.98 Y144.037 E8.83397
G1 X221.649 Y145.481 E8.85791
G1 X222.005 Y146.537 E8.87468
G1 X222.348 Y148.088 E8.89859
G1 X222.468 Y149.042 E8.91306
G1 X222.499 Y150.036 E8.92802
G1 X222.458 Y150.864 E8.9405
