;FLAVOR:Marlin
;TIME:3521
;Filament used: 1.53456m, 0m
;Layer height: 0.3
;MINX:187.471
;MINY:118.114
;MINZ:0.2
;MAXX:232.529
;MAXY:181.913
;MAXZ:43.1
;Generated with StratosEngine 1.3.0
T0
M82 ;absolute extrusion mode
;Machine Model: Sigma D25 
;Materials used: T0 PLA  
;Extruders used: T0 0.4  
M141 S40 	;Set chamber temperature 
M140 S60 	;Heat build surface
M104 T0 S215	;Heat extruder 0
M190 S60 	;Wait until bed temperature reached 
M109 T0 S215	;Heat extruder 0 and wait
G21 		;metric values 
G90 		;absolute positioning 
M204 S2500 	;set default acceleration 
M205 X12.5 Y12.5 ;set default jerk 
M107 		;start with the fan off 
G28 X0 Y0 	;move X/Y to min endstops 
G28 Z0 		;move Z to min endstops 
G1 Z5 F200 	;safety Z axis movement

T0
G92 E0 		;set zero the extruded length 
G1 E10 F30
G92 E0 
G4 S2 		;stabilize hotend 
G1 E-0.5 F1000 
G92 E0

G4 P1
G4 P2
G4 P3

M141 S40
G92 E0
;LAYER_COUNT:144
;LAYER:0
M107
M204 S456
M205 X9.38 Y9.38
G1 F600 Z0.8
G0 F6000 X222.053 Y181.912 Z0.8
M204 S1425
;TYPE:SKIRT
G1 F600 Z0.2
G1 F1050 E0
G1 F1350 X195.528 Y181.913 E0.39916
G1 X194.367 Y181.842 E0.41666
G1 X192.819 Y181.48 E0.44059
G1 X191.375 Y180.815 E0.46451
G1 X190.093 Y179.876 E0.48842
G1 X189.024 Y178.7 E0.51234
G1 X188.212 Y177.333 E0.53627
G1 X187.689 Y175.833 E0.56017
G1 X187.542 Y175.05 E0.57216
G1 X187.471 Y173.989 E0.58816
G1 X187.471 Y126.034 E1.30981
G1 X187.63 Y124.453 E1.33372
G1 X188.103 Y122.935 E1.35765
G1 X188.868 Y121.542 E1.38157
G1 X189.897 Y120.33 E1.40549
G1 X191.146 Y119.348 E1.4294
G1 X192.567 Y118.635 E1.45332
G1 X194.101 Y118.22 E1.47724
G1 X195.391 Y118.114 E1.49672
G1 X224.609 Y118.114 E1.9364
G1 X226.19 Y118.273 E1.96031
G1 X227.708 Y118.746 E1.98424
G1 X229.101 Y119.511 E2.00816
G1 X230.313 Y120.54 E2.03208
G1 X231.295 Y121.789 E2.05599
G1 X232.008 Y123.21 E2.07992
G1 X232.423 Y124.744 E2.10383
G1 X232.529 Y126.034 E2.12331
G1 X232.529 Y173.988 E2.84494
G1 X232.37 Y175.569 E2.86885
G1 X231.897 Y177.087 E2.89278
G1 X231.132 Y178.48 E2.91669
G1 X230.103 Y179.692 E2.94062
G1 X228.854 Y180.674 E2.96453
G1 X227.433 Y181.387 E2.98845
G1 X225.899 Y181.802 E3.01237
G1 X224.621 Y181.908 E3.03167
G1 X222.053 Y181.912 E3.07031
M204 S456
G0 F6000 X222.053 Y181.432
M204 S1425
G1 F1350 X195.528 Y181.433 E3.46947
G1 X194.405 Y181.363 E3.4864
G1 X192.908 Y181.002 E3.50958
G1 X191.517 Y180.341 E3.53275
G1 X190.292 Y179.407 E3.55593
G1 X189.285 Y178.24 E3.57913
G1 X188.541 Y176.892 E3.6023
G1 X188.09 Y175.419 E3.62548
G1 X187.951 Y173.989 E3.6471
G1 X187.951 Y126.034 E4.36875
G1 X188.11 Y124.502 E4.39193
G1 X188.582 Y123.035 E4.41512
G1 X189.345 Y121.698 E4.43828
G1 X190.368 Y120.546 E4.46147
G1 X191.606 Y119.629 E4.48465
G1 X193.006 Y118.987 E4.50783
G1 X194.508 Y118.647 E4.531
G1 X195.391 Y118.594 E4.54432
G1 X224.609 Y118.594 E4.984
G1 X226.141 Y118.753 E5.00718
G1 X227.608 Y119.225 E5.03037
G1 X228.945 Y119.988 E5.05354
G1 X230.097 Y121.011 E5.07672
G1 X231.014 Y122.249 E5.0999
G1 X231.656 Y123.649 E5.12308
G1 X231.996 Y125.151 E5.14626
G1 X232.049 Y126.034 E5.15957
G1 X232.049 Y173.988 E5.8812
G1 X231.89 Y175.52 E5.90438
G1 X231.418 Y176.987 E5.92757
G1 X230.655 Y178.324 E5.95074
G1 X229.632 Y179.476 E5.97392
G1 X228.394 Y180.393 E5.9971
G1 X226.994 Y181.035 E6.02028
G1 X225.492 Y181.375 E6.04346
G1 X224.621 Y181.428 E6.05659
G1 X222.053 Y181.432 E6.09523
M204 S456
G0 F6000 X222.053 Y180.952
M204 S1425
G1 F1350 X195.528 Y180.953 E6.49439
G1 X194.445 Y180.884 E6.51072
G1 X192.999 Y180.525 E6.53314
G1 X191.663 Y179.866 E6.55556
G1 X190.497 Y178.938 E6.57799
G1 X189.556 Y177.783 E6.60041
G1 X188.882 Y176.455 E6.62282
G1 X188.507 Y175.013 E6.64524
G1 X188.431 Y173.989 E6.66069
G1 X188.431 Y126.034 E7.38234
G1 X188.59 Y124.553 E7.40475
G1 X189.061 Y123.14 E7.42717
G1 X189.822 Y121.859 E7.44959
G1 X190.838 Y120.769 E7.47201
G1 X192.063 Y119.921 E7.49443
G1 X193.44 Y119.353 E7.51685
G1 X194.907 Y119.091 E7.53927
G1 X195.391 Y119.074 E7.54656
G1 X224.609 Y119.074 E7.98625
G1 X226.09 Y119.233 E8.00866
G1 X227.503 Y119.704 E8.03107
G1 X228.784 Y120.465 E8.0535
G1 X229.874 Y121.481 E8.07592
G1 X230.722 Y122.706 E8.09834
G1 X231.29 Y124.083 E8.12076
G1 X231.552 Y125.55 E8.14318
G1 X231.569 Y126.034 E8.15047
G1 X231.569 Y173.988 E8.8721
G1 X231.41 Y175.469 E8.89452
G1 X230.939 Y176.882 E8.91693
G1 X230.178 Y178.163 E8.93935
G1 X229.162 Y179.253 E8.96178
G1 X227.937 Y180.101 E8.9842
G1 X226.56 Y180.669 E9.00661
G1 X225.093 Y180.931 E9.02904
G1 X224.62 Y180.948 E9.03616
G1 X222.053 Y180.952 E9.07479
M204 S456
G0 F6000 X222.053 Y180.472
M204 S1425
G1 F1350 X195.528 Y180.473 E9.47395
G1 X194.485 Y180.405 E9.48968
G1 X193.093 Y180.048 E9.5113
G1 X191.814 Y179.392 E9.53293
G1 X190.711 Y178.471 E9.55456
G1 X189.838 Y177.329 E9.57619
G1 X189.238 Y176.023 E9.59782
G1 X188.941 Y174.616 E9.61946
G1 X188.911 Y173.989 E9.6289
G1 X188.911 Y126.034 E10.35055
G1 X189.07 Y124.606 E10.37217
G1 X189.541 Y123.248 E10.3938
G1 X190.299 Y122.027 E10.41543
G1 X191.307 Y121.003 E10.43705
G1 X192.517 Y120.226 E10.45869
G1 X193.868 Y119.736 E10.48032
G1 X195.391 Y119.554 E10.5034
G1 X224.609 Y119.554 E10.94309
G1 X226.037 Y119.713 E10.96471
G1 X227.395 Y120.184 E10.98634
G1 X228.616 Y120.942 E11.00797
G1 X229.64 Y121.95 E11.02959
G1 X230.417 Y123.16 E11.05123
G1 X230.907 Y124.511 E11.07286
G1 X231.089 Y126.034 E11.09594
G1 X231.089 Y173.988 E11.81757
G1 X230.93 Y175.416 E11.83919
G1 X230.459 Y176.774 E11.86082
G1 X229.701 Y177.995 E11.88245
G1 X228.693 Y179.019 E11.90407
G1 X227.483 Y179.796 E11.92571
G1 X226.132 Y180.286 E11.94734
G1 X224.619 Y180.468 E11.97027
G1 X222.053 Y180.472 E12.00888
M204 S456
G0 F6000 X222.053 Y179.992
M204 S1425
G1 F1350 X195.528 Y179.993 E12.40804
G1 X194.526 Y179.926 E12.42316
G1 X193.19 Y179.571 E12.44396
G1 X191.97 Y178.918 E12.46478
G1 X190.933 Y178.005 E12.48557
G1 X190.132 Y176.877 E12.50639
G1 X189.61 Y175.597 E12.5272
G1 X189.391 Y173.989 E12.55162
G1 X189.391 Y126.034 E13.27327
G1 X189.55 Y124.66 E13.29408
G1 X190.02 Y123.36 E13.31488
G1 X190.775 Y122.201 E13.3357
G1 X191.775 Y121.246 E13.35651
G1 X192.967 Y120.546 E13.37731
G1 X194.288 Y120.136 E13.39812
G1 X195.391 Y120.034 E13.41479
G1 X224.609 Y120.034 E13.85448
G1 X225.983 Y120.193 E13.87529
G1 X227.283 Y120.663 E13.89609
G1 X228.442 Y121.418 E13.91691
G1 X229.397 Y122.418 E13.93772
G1 X230.097 Y123.61 E13.95852
G1 X230.507 Y124.931 E13.97933
G1 X230.609 Y126.034 E13.996
G1 X230.609 Y173.988 E14.71764
G1 X230.45 Y175.362 E14.73845
G1 X229.98 Y176.662 E14.75925
G1 X229.225 Y177.821 E14.78007
G1 X228.225 Y178.776 E14.80088
G1 X227.033 Y179.476 E14.82168
G1 X225.712 Y179.886 E14.84249
G1 X224.618 Y179.988 E14.85903
G1 X222.053 Y179.992 E14.89763
M204 S456
G0 F6000 X222.053 Y179.512
M204 S1425
G1 F1350 X195.528 Y179.513 E15.29679
G1 X194.568 Y179.447 E15.31127
G1 X193.29 Y179.094 E15.33122
G1 X192.134 Y178.445 E15.35117
G1 X191.165 Y177.54 E15.37112
G1 X190.44 Y176.43 E15.39107
G1 X190.001 Y175.178 E15.41104
G1 X189.871 Y173.989 E15.42904
G1 X189.871 Y126.034 E16.15069
G1 X190.03 Y124.718 E16.17063
G1 X190.499 Y123.477 E16.1906
G1 X191.25 Y122.384 E16.21055
G1 X192.24 Y121.502 E16.23051
G1 X193.412 Y120.881 E16.25047
G1 X194.698 Y120.558 E16.27042
G1 X195.391 Y120.514 E16.28087
G1 X224.609 Y120.514 E16.72056
G1 X225.925 Y120.673 E16.7405
G1 X227.166 Y121.142 E16.76047
G1 X228.259 Y121.893 E16.78042
G1 X229.141 Y122.883 E16.80038
G1 X229.762 Y124.055 E16.82034
G1 X230.085 Y125.341 E16.84029
G1 X230.129 Y126.034 E16.85074
G1 X230.129 Y173.988 E17.57237
G1 X229.97 Y175.304 E17.59232
G1 X229.501 Y176.545 E17.61228
G1 X228.75 Y177.638 E17.63224
G1 X227.76 Y178.52 E17.65219
G1 X226.588 Y179.141 E17.67215
G1 X225.302 Y179.464 E17.69211
G1 X224.618 Y179.508 E17.70242
G1 X222.053 Y179.512 E17.74102
M204 S456
G0 F6000 X222.053 Y179.032
M204 S1425
G1 F1350 X195.528 Y179.033 E18.14018
G1 X193.992 Y178.831 E18.16349
G1 X192.829 Y178.329 E18.18256
G1 X191.828 Y177.553 E18.20162
G1 X191.051 Y176.552 E18.22069
G1 X190.549 Y175.389 E18.23975
G1 X190.351 Y173.989 E18.26102
G1 X190.351 Y126.034 E18.98267
G1 X190.51 Y124.777 E19.00174
G1 X190.978 Y123.6 E19.0208
G1 X191.724 Y122.576 E19.03987
G1 X192.702 Y121.771 E19.05893
G1 X193.85 Y121.235 E19.07799
G1 X195.391 Y120.994 E19.10146
G1 X224.609 Y120.994 E19.54115
G1 X225.866 Y121.153 E19.56022
G1 X227.043 Y121.621 E19.57928
G1 X228.067 Y122.367 E19.59834
G1 X228.872 Y123.345 E19.6174
G1 X229.408 Y124.493 E19.63647
G1 X229.649 Y126.034 E19.65994
G1 X229.649 Y173.988 E20.38158
G1 X229.49 Y175.245 E20.40064
G1 X229.022 Y176.422 E20.4197
G1 X228.276 Y177.446 E20.43877
G1 X227.298 Y178.251 E20.45783
G1 X226.15 Y178.787 E20.4769
G1 X224.617 Y179.028 E20.50025
G1 X222.053 Y179.032 E20.53883
M204 S456
G0 F6000 X222.053 Y178.552
M204 S1425
G1 F1350 X195.528 Y178.553 E20.93799
G1 X194.069 Y178.353 E20.96015
G1 X192.972 Y177.855 E20.97828
G1 X192.044 Y177.086 E20.99642
G1 X191.35 Y176.102 E21.01454
G1 X190.938 Y174.97 E21.03267
G1 X190.831 Y173.989 E21.04752
G1 X190.831 Y126.034 E21.76917
G1 X190.99 Y124.84 E21.78729
G1 X191.456 Y123.729 E21.80542
G1 X192.197 Y122.779 E21.82355
G1 X193.161 Y122.056 E21.84169
G1 X194.28 Y121.611 E21.85981
G1 X195.391 Y121.474 E21.87665
G1 X224.609 Y121.474 E22.31634
G1 X225.803 Y121.633 E22.33447
G1 X226.914 Y122.099 E22.3526
G1 X227.864 Y122.84 E22.37073
G1 X228.587 Y123.804 E22.38886
G1 X229.032 Y124.923 E22.40698
G1 X229.169 Y126.034 E22.42383
G1 X229.169 Y173.988 E23.14546
G1 X229.01 Y175.182 E23.16359
G1 X228.544 Y176.293 E23.18172
G1 X227.803 Y177.243 E23.19985
G1 X226.839 Y177.966 E23.21798
G1 X225.72 Y178.411 E23.2361
G1 X224.616 Y178.548 E23.25284
G1 X222.053 Y178.552 E23.29141
M204 S456
G0 F6000 X222.053 Y178.072
M204 S1425
G1 F1350 X195.528 Y178.073 E23.69057
G1 X194.149 Y177.875 E23.71154
G1 X193.123 Y177.381 E23.72867
G1 X192.274 Y176.621 E23.74582
G1 X191.668 Y175.657 E23.76296
G1 X191.352 Y174.563 E23.78009
G1 X191.311 Y173.989 E23.78875
G1 X191.311 Y126.034 E24.5104
G1 X191.47 Y124.906 E24.52754
G1 X191.935 Y123.866 E24.54469
G1 X192.669 Y122.995 E24.56183
G1 X193.615 Y122.361 E24.57896
G1 X194.7 Y122.013 E24.59611
G1 X195.391 Y121.954 E24.60655
G1 X224.609 Y121.954 E25.04623
G1 X225.737 Y122.113 E25.06337
G1 X226.777 Y122.578 E25.08052
G1 X227.648 Y123.312 E25.09766
G1 X228.282 Y124.258 E25.1148
G1 X228.63 Y125.343 E25.13194
G1 X228.689 Y126.034 E25.14238
G1 X228.689 Y173.988 E25.86401
G1 X228.53 Y175.116 E25.88115
G1 X228.065 Y176.156 E25.8983
G1 X227.331 Y177.027 E25.91544
G1 X226.385 Y177.661 E25.93258
G1 X225.3 Y178.009 E25.94972
G1 X224.615 Y178.068 E25.96007
G1 X222.053 Y178.072 E25.99862
M204 S456
G0 F6000 X222.053 Y177.592
M204 S1425
G1 F1350 X195.528 Y177.593 E26.39778
G1 X194.233 Y177.398 E26.41749
G1 X193.283 Y176.907 E26.43358
G1 X192.519 Y176.159 E26.44967
G1 X192.008 Y175.219 E26.46577
G1 X191.791 Y173.989 E26.48457
G1 X191.791 Y126.034 E27.20622
G1 X191.95 Y124.976 E27.22232
G1 X192.413 Y124.012 E27.23841
G1 X193.138 Y123.226 E27.2545
G1 X194.063 Y122.688 E27.2706
G1 X195.104 Y122.445 E27.28669
G1 X195.391 Y122.434 E27.29101
G1 X224.609 Y122.434 E27.7307
G1 X225.667 Y122.593 E27.7468
G1 X226.631 Y123.056 E27.76289
G1 X227.417 Y123.781 E27.77898
G1 X227.955 Y124.706 E27.79509
G1 X228.198 Y125.747 E27.81117
G1 X228.209 Y126.034 E27.8155
G1 X228.209 Y173.988 E28.53713
G1 X228.05 Y175.046 E28.55323
G1 X227.587 Y176.01 E28.56932
G1 X226.862 Y176.796 E28.58541
G1 X225.937 Y177.334 E28.60152
G1 X224.896 Y177.577 E28.6176
G1 X224.615 Y177.588 E28.62183
G1 X222.053 Y177.592 E28.66039
M204 S456
G0 F6000 X222.053 Y177.112
M204 S1425
G1 F1350 X195.437 Y177.112 E29.06092
G1 X194.323 Y176.92 E29.07793
G1 X193.454 Y176.435 E29.09291
G1 X192.782 Y175.7 E29.10789
G1 X192.376 Y174.792 E29.12286
G1 X192.271 Y173.989 E29.13505
G1 X192.271 Y126.034 E29.85669
G1 X192.43 Y125.052 E29.87166
G1 X192.89 Y124.169 E29.88665
G1 X193.604 Y123.476 E29.90162
G1 X194.501 Y123.044 E29.9166
G1 X195.391 Y122.914 E29.93014
G1 X224.609 Y122.914 E30.36982
G1 X225.591 Y123.073 E30.38479
G1 X226.474 Y123.533 E30.39978
G1 X227.167 Y124.247 E30.41475
G1 X227.599 Y125.144 E30.42973
G1 X227.729 Y126.034 E30.44327
G1 X227.729 Y173.988 E31.1649
G1 X227.57 Y174.97 E31.17987
G1 X227.11 Y175.853 E31.19485
G1 X226.396 Y176.546 E31.20983
G1 X225.499 Y176.978 E31.22481
G1 X224.614 Y177.108 E31.23827
G1 X222.053 Y177.112 E31.27681
M204 S456
G0 F6000 X222.053 Y176.632
M204 S1425
G1 F1350 X195.451 Y176.632 E31.67713
G1 X194.418 Y176.443 E31.69293
G1 X193.639 Y175.964 E31.70669
G1 X193.07 Y175.247 E31.72047
G1 X192.78 Y174.38 E31.73422
G1 X192.751 Y173.989 E31.74012
G1 X192.751 Y126.034 E32.46177
G1 X192.909 Y125.133 E32.47554
G1 X193.366 Y124.34 E32.48931
G1 X194.066 Y123.751 E32.50308
G1 X194.924 Y123.436 E32.51683
G1 X195.391 Y123.394 E32.52389
G1 X224.609 Y123.394 E32.96357
G1 X225.51 Y123.552 E32.97734
G1 X226.303 Y124.009 E32.99111
G1 X226.892 Y124.709 E33.00488
G1 X227.207 Y125.567 E33.01863
G1 X227.249 Y126.034 E33.02569
G1 X227.249 Y173.988 E33.74732
G1 X227.091 Y174.889 E33.76109
G1 X226.634 Y175.682 E33.77486
G1 X225.934 Y176.271 E33.78863
G1 X225.076 Y176.586 E33.80238
G1 X224.613 Y176.628 E33.80938
G1 X222.053 Y176.632 E33.8479
M204 S456
G0 F6000 X222.053 Y176.152
M204 S1425
G1 F1350 X195.465 Y176.152 E34.24801
G1 X194.522 Y175.966 E34.26247
G1 X193.843 Y175.495 E34.27491
G1 X193.39 Y174.803 E34.28736
G1 X193.231 Y173.989 E34.29984
G1 X193.231 Y126.034 E35.02149
G1 X193.389 Y125.223 E35.03392
G1 X193.84 Y124.53 E35.04636
G1 X194.519 Y124.058 E35.05881
G1 X195.391 Y123.874 E35.07222
G1 X224.609 Y123.874 E35.5119
G1 X225.42 Y124.032 E35.52434
G1 X226.113 Y124.483 E35.53678
G1 X226.585 Y125.162 E35.54922
G1 X226.769 Y126.034 E35.56263
G1 X226.769 Y173.988 E36.28427
G1 X226.611 Y174.799 E36.2967
G1 X226.16 Y175.492 E36.30914
G1 X225.481 Y175.964 E36.32159
G1 X224.612 Y176.148 E36.33496
G1 X222.053 Y176.152 E36.37346
M204 S456
G0 F6000 X222.053 Y175.672
M204 S1425
G1 F1350 X195.479 Y175.672 E36.77336
G1 X194.636 Y175.49 E36.78634
G1 X194.072 Y175.03 E36.79729
G1 X193.756 Y174.375 E36.80824
G1 X193.711 Y173.989 E36.81408
G1 X193.711 Y126.034 E37.53573
G1 X193.869 Y125.324 E37.54668
G1 X194.312 Y124.746 E37.55764
G1 X194.958 Y124.411 E37.56859
G1 X195.391 Y124.354 E37.57516
G1 X224.609 Y124.354 E38.01484
G1 X225.319 Y124.512 E38.02579
G1 X225.897 Y124.955 E38.03675
G1 X226.232 Y125.601 E38.0477
G1 X226.289 Y126.034 E38.05427
G1 X226.289 Y173.988 E38.77591
G1 X226.131 Y174.698 E38.78685
G1 X225.688 Y175.276 E38.79781
G1 X225.042 Y175.611 E38.80876
G1 X224.612 Y175.668 E38.81529
G1 X222.053 Y175.672 E38.8538
M204 S456
G0 F6000 X222.053 Y175.192
M204 S1425
G1 F1350 X195.493 Y175.192 E39.25348
G1 X194.768 Y175.015 E39.26471
G1 X194.343 Y174.573 E39.27394
G1 X194.191 Y173.989 E39.28302
G1 X194.191 Y126.034 E40.00467
G1 X194.348 Y125.441 E40.0139
G1 X194.777 Y125.003 E40.02313
G1 X195.391 Y124.834 E40.03271
G1 X224.609 Y124.834 E40.4724
G1 X225.202 Y124.991 E40.48163
G1 X225.64 Y125.42 E40.49085
G1 X225.809 Y126.034 E40.50044
G1 X225.809 Y173.988 E41.22207
G1 X225.652 Y174.581 E41.2313
G1 X225.223 Y175.019 E41.24053
G1 X224.611 Y175.188 E41.25008
G1 X222.053 Y175.192 E41.28858
M204 S456
G0 F6000 X222.053 Y174.712
M204 S1425
G1 F1350 X195.507 Y174.713 E41.68805
G1 X194.929 Y174.541 E41.69713
G1 X194.686 Y174.137 E41.70422
G1 X194.671 Y173.989 E41.70646
G1 X194.671 Y126.034 E42.42811
G1 X194.826 Y125.588 E42.43521
G1 X195.223 Y125.334 E42.44231
G1 X195.391 Y125.314 E42.44485
G1 X224.609 Y125.314 E42.88454
G1 X225.055 Y125.469 E42.89164
G1 X225.309 Y125.866 E42.89874
G1 X225.329 Y126.034 E42.90128
G1 X225.329 Y173.988 E43.62292
G1 X225.174 Y174.434 E43.63002
G1 X224.777 Y174.688 E43.63711
G1 X224.61 Y174.708 E43.63964
G1 X222.053 Y174.712 E43.67812
M204 S456
G0 F6000 X222.053 Y174.232
M204 S1425
G1 F1350 X195.521 Y174.233 E44.07739
G1 X195.254 Y174.186 E44.08147
G1 X195.151 Y173.989 E44.08481
G1 X195.151 Y126.034 E44.80646
G1 X195.295 Y125.814 E44.81042
G1 X195.391 Y125.794 E44.81189
G1 X224.609 Y125.794 E45.25158
G1 X224.829 Y125.938 E45.25554
G1 X224.849 Y126.034 E45.25701
G1 X224.849 Y173.988 E45.97865
