;FLAVOR:Marlin
;TIME:2051
;Filament used: 0.405729m, 0m
;Layer height: 0.15
;MINX:216.062
;MINY:130.522
;MINZ:0.2
;MAXX:241.445
;MAXY:159.029
;MAXZ:18.65
;Generated with StratosEngine 1.3.0
T0
M82 ;absolute extrusion mode
;Machine Model: Sigma D25 
;Materials used: T0 PLA T1 PLA 
;Extruders used: T0 0.4 T1 0.4 
M141 S40 	;Set chamber temperature 
M140 S60 	;Heat build surface
M104 T0 S205	;Heat extruder 0
M104 T1 S205	;Heat extruder 1
M190 S60 	;Wait until bed temperature reached 
M109 T0 S205	;Heat extruder 0 and wait
M109 T1 S205	;Heat extruder 1 and wait
G21 		;metric values 
G90 		;absolute positioning 
M204 S2500 	;set default acceleration 
M205 X12.5 Y12.5 ;set default jerk 
M107 		;start with the fan off 
G28 X0 Y0 	;move X/Y to min endstops 
G28 Z0 		;move Z to min endstops 
G1 Z5 F200 	;safety Z axis movement
T1
G92 E0 		;set zero the extruded length 
G1 E10 F30
G92 E0 
G1 E-8 F1000 
G92 E0
T0
G92 E0 		;set zero the extruded length 
G1 E10 F30
G92 E0 
G4 S2 		;stabilize hotend 
G1 E-0.5 F1000 
G92 E0

G4 P1
G4 P2
G4 P3

M141 S40
G92 E0
;LAYER_COUNT:125
;LAYER:0
M107
M204 S456
M205 X9.38 Y9.38
G1 F600 Z0.5
G0 F6000 X226.415 Y158.975 Z0.5
M204 S1425
;TYPE:SKIRT
G1 F600 Z0.2
G1 F1050 E0
G1 F1350 X225.529 Y158.861 E0.0112
G1 X224.454 Y158.709 E0.02482
G1 X223.436 Y158.536 E0.03777
G1 X222.798 Y158.333 E0.04616
G1 X222.19 Y158.056 E0.05454
G1 X221.618 Y157.707 E0.06294
G1 X221.093 Y157.294 E0.07132
G1 X220.62 Y156.82 E0.07972
G1 X220.207 Y156.294 E0.0881
G1 X219.528 Y155.084 E0.1055
G1 X218.847 Y153.74 E0.1244
G1 X218.123 Y152.4 E0.1435
G1 X217.56 Y151.236 E0.15971
G1 X217.361 Y150.598 E0.16809
G1 X217.203 Y149.564 E0.18121
G1 X216.937 Y146.911 E0.21465
G1 X216.594 Y144.256 E0.24822
G1 X216.319 Y142.451 E0.27112
G1 X216.13 Y141.292 E0.28584
G1 X216.062 Y140.627 E0.29423
G1 X216.074 Y139.958 E0.30262
G1 X216.166 Y139.295 E0.31101
G1 X216.521 Y138.162 E0.3259
G1 X216.92 Y137.289 E0.33794
G1 X217.348 Y136.573 E0.3484
G1 X218.195 Y135.616 E0.36442
G1 X219.078 Y134.83 E0.37925
G1 X219.266 Y134.683 E0.38224
G1 X220.18 Y133.888 E0.39743
G1 X220.71 Y133.48 E0.40582
G1 X221.305 Y133.128 E0.41449
G1 X222.453 Y132.541 E0.43066
G1 X223.365 Y132.082 E0.44346
G1 X223.999 Y131.81 E0.45211
G1 X225.116 Y131.411 E0.46699
G1 X226.401 Y130.982 E0.48398
G1 X227.704 Y130.612 E0.50096
G1 X228.368 Y130.527 E0.50936
G1 X229.037 Y130.522 E0.51775
G1 X229.701 Y130.596 E0.52613
G1 X230.628 Y130.832 E0.53812
G1 X231.034 Y130.963 E0.54347
G1 X232.711 Y131.523 E0.56564
G1 X233.628 Y131.856 E0.57788
G1 X234.042 Y132.043 E0.58357
G1 X234.988 Y132.513 E0.59682
G1 X235.228 Y132.638 E0.60021
G1 X236.169 Y133.12 E0.61347
G1 X236.629 Y133.383 E0.62012
G1 X237.738 Y134.263 E0.63787
G1 X238.78 Y135.156 E0.65508
G1 X239.736 Y136.052 E0.67151
G1 X240.151 Y136.577 E0.6799
G1 X240.857 Y137.877 E0.69845
G1 X241.245 Y138.889 E0.71205
G1 X241.389 Y139.542 E0.72043
G1 X241.445 Y140.795 E0.73616
G1 X241.361 Y142.04 E0.75181
G1 X241.359 Y142.147 E0.75315
G1 X241.225 Y144.492 E0.78261
G1 X241.147 Y147.18 E0.81633
G1 X241.145 Y149.835 E0.84962
G1 X241.159 Y150.351 E0.8561
G1 X241.173 Y151.452 E0.8699
G1 X241.141 Y152.12 E0.87829
G1 X241.03 Y152.78 E0.88668
G1 X240.841 Y153.422 E0.89508
G1 X240.577 Y154.036 E0.90346
G1 X240.242 Y154.615 E0.91185
G1 X239.84 Y155.15 E0.92024
G1 X239.377 Y155.633 E0.92863
G1 X238.859 Y156.057 E0.93702
G1 X238.295 Y156.417 E0.94541
G1 X237.415 Y156.811 E0.95751
G1 X236.431 Y157.153 E0.97057
G1 X235.395 Y157.492 E0.98424
G1 X232.751 Y158.4 E1.0193
G1 X231.3 Y158.878 E1.03845
G1 X230.227 Y159.016 E1.05202
G1 X229.528 Y159.029 E1.06079
G1 X227.709 Y159.029 E1.0836
G1 X226.415 Y158.975 E1.09984
M204 S456
G0 F6000 X226.465 Y158.578
M204 S1425
G1 F1350 X225.585 Y158.465 E1.11097
G1 X224.47 Y158.307 E1.12509
G1 X223.512 Y158.143 E1.13728
G1 X222.899 Y157.943 E1.14536
G1 X222.315 Y157.669 E1.15345
G1 X221.77 Y157.325 E1.16154
G1 X221.272 Y156.916 E1.16962
G1 X220.828 Y156.448 E1.17771
G1 X220.203 Y155.514 E1.1918
G1 X219.851 Y154.839 E1.20135
G1 X219.199 Y153.548 E1.21948
G1 X218.477 Y152.214 E1.23851
G1 X217.926 Y151.073 E1.25439
G1 X217.738 Y150.456 E1.26248
G1 X217.601 Y149.529 E1.27423
G1 X217.332 Y146.849 E1.30801
G1 X216.99 Y144.194 E1.34158
G1 X216.721 Y142.439 E1.36385
G1 X216.524 Y141.228 E1.37923
G1 X216.461 Y140.586 E1.38732
G1 X216.477 Y139.942 E1.3954
G1 X216.572 Y139.304 E1.40349
G1 X216.888 Y138.321 E1.41644
G1 X217.351 Y137.332 E1.43013
G1 X217.689 Y136.783 E1.43822
G1 X218.462 Y135.914 E1.4528
G1 X219.343 Y135.13 E1.46759
G1 X219.516 Y134.995 E1.47034
G1 X220.442 Y134.19 E1.48573
G1 X220.954 Y133.798 E1.49382
G1 X221.487 Y133.484 E1.50157
G1 X222.633 Y132.898 E1.51772
G1 X223.545 Y132.439 E1.53052
G1 X224.134 Y132.187 E1.53855
G1 X225.354 Y131.752 E1.5548
G1 X226.522 Y131.363 E1.57023
G1 X227.801 Y131 E1.58691
G1 X228.441 Y130.923 E1.59499
G1 X229.086 Y130.925 E1.60308
G1 X230.209 Y131.124 E1.61738
G1 X230.907 Y131.343 E1.62656
G1 X232.579 Y131.901 E1.64866
G1 X233.471 Y132.224 E1.66056
G1 X233.864 Y132.401 E1.66596
G1 X234.803 Y132.868 E1.67911
G1 X235.01 Y132.976 E1.68204
G1 X235.987 Y133.476 E1.6958
G1 X237.078 Y134.216 E1.71234
G1 X237.459 Y134.551 E1.7187
G1 X238.515 Y135.456 E1.73614
G1 X239.453 Y136.336 E1.75227
G1 X239.85 Y136.845 E1.76036
G1 X240.496 Y138.05 E1.77751
G1 X240.867 Y139.021 E1.79054
G1 X241.001 Y139.651 E1.79862
G1 X241.046 Y140.768 E1.81264
G1 X240.959 Y142.057 E1.82884
G1 X240.96 Y142.124 E1.82968
G1 X240.825 Y144.492 E1.85942
G1 X240.747 Y147.169 E1.89301
G1 X240.745 Y149.845 E1.92657
G1 X240.759 Y150.356 E1.93298
G1 X240.773 Y151.457 E1.94679
G1 X240.741 Y152.101 E1.95487
G1 X240.63 Y152.736 E1.96296
G1 X240.441 Y153.352 E1.97104
G1 X240.177 Y153.94 E1.97912
G1 X239.842 Y154.491 E1.98721
G1 X239.442 Y154.997 E1.99529
G1 X238.983 Y155.449 E2.00337
G1 X238.471 Y155.841 E2.01146
G1 X237.914 Y156.166 E2.01955
G1 X236.4 Y156.741 E2.03986
G1 X235.195 Y157.137 E2.05576
G1 X232.634 Y158.016 E2.08972
G1 X231.188 Y158.493 E2.10881
G1 X230.215 Y158.616 E2.12111
G1 X229.528 Y158.629 E2.12973
G1 X227.715 Y158.629 E2.15246
G1 X226.465 Y158.578 E2.16815
M204 S456
G0 F6000 X226.516 Y158.181
M204 S1425
G1 F1350 X225.641 Y158.069 E2.17921
G1 X224.518 Y157.91 E2.19344
G1 X223.588 Y157.749 E2.20527
G1 X223.001 Y157.553 E2.21303
G1 X222.444 Y157.282 E2.2208
G1 X221.926 Y156.943 E2.22856
G1 X221.456 Y156.539 E2.23634
G1 X221.042 Y156.078 E2.24411
G1 X220.237 Y154.714 E2.26397
G1 X219.542 Y153.342 E2.28326
G1 X218.832 Y152.029 E2.30197
G1 X218.292 Y150.91 E2.31756
G1 X218.116 Y150.316 E2.32532
G1 X218 Y149.495 E2.33572
G1 X217.732 Y146.829 E2.36932
G1 X217.383 Y144.121 E2.40356
G1 X217.109 Y142.33 E2.42629
G1 X216.919 Y141.164 E2.4411
G1 X216.859 Y140.547 E2.44887
G1 X216.88 Y139.928 E2.45664
G1 X216.979 Y139.317 E2.4644
G1 X217.456 Y138.015 E2.48179
G1 X218.03 Y136.994 E2.49648
G1 X218.729 Y136.211 E2.50964
G1 X219.608 Y135.429 E2.5244
G1 X219.783 Y135.294 E2.52717
G1 X220.705 Y134.492 E2.54249
G1 X221.669 Y133.84 E2.55709
G1 X222.813 Y133.255 E2.5732
G1 X223.725 Y132.796 E2.586
G1 X224.268 Y132.564 E2.59341
G1 X225.481 Y132.132 E2.60956
G1 X226.643 Y131.745 E2.62491
G1 X227.898 Y131.389 E2.64127
G1 X228.513 Y131.32 E2.64903
G1 X229.133 Y131.33 E2.65681
G1 X230.096 Y131.508 E2.66909
G1 X230.781 Y131.722 E2.67809
G1 X232.447 Y132.278 E2.70012
G1 X233.436 Y132.644 E2.71334
G1 X233.686 Y132.76 E2.7168
G1 X234.618 Y133.223 E2.72985
G1 X235.805 Y133.832 E2.74658
G1 X236.814 Y134.516 E2.76186
G1 X237.209 Y134.865 E2.76847
G1 X238.251 Y135.756 E2.78567
G1 X239.17 Y136.619 E2.80148
G1 X239.547 Y137.111 E2.80925
G1 X240.136 Y138.224 E2.82504
G1 X240.488 Y139.152 E2.83749
G1 X240.612 Y139.758 E2.84524
G1 X240.647 Y140.741 E2.85758
G1 X240.562 Y142.005 E2.87347
G1 X240.56 Y142.101 E2.87467
G1 X240.425 Y144.458 E2.90428
G1 X240.347 Y147.157 E2.93814
G1 X240.345 Y149.856 E2.97198
G1 X240.359 Y150.361 E2.97832
G1 X240.373 Y151.462 E2.99213
G1 X240.341 Y152.08 E2.99989
G1 X240.229 Y152.69 E3.00766
G1 X240.04 Y153.28 E3.01543
G1 X239.777 Y153.84 E3.02319
G1 X239.443 Y154.362 E3.03096
G1 X239.046 Y154.837 E3.03873
G1 X238.59 Y155.256 E3.04649
G1 X238.084 Y155.614 E3.05427
G1 X237.152 Y156.056 E3.0672
G1 X236.182 Y156.393 E3.08008
G1 X235.09 Y156.751 E3.09449
G1 X232.519 Y157.633 E3.12858
G1 X231.076 Y158.108 E3.14763
G1 X229.981 Y158.224 E3.16143
G1 X229.528 Y158.229 E3.16712
G1 X227.721 Y158.229 E3.18978
G1 X226.516 Y158.181 E3.2049
M204 S456
G0 F6000 X226.567 Y157.784
M204 S1425
G1 F1350 X225.697 Y157.673 E3.2159
G1 X224.574 Y157.513 E3.23012
G1 X223.666 Y157.356 E3.24168
G1 X223.105 Y157.163 E3.24912
G1 X222.575 Y156.897 E3.25656
G1 X222.086 Y156.561 E3.264
G1 X221.647 Y156.163 E3.27143
G1 X221.265 Y155.71 E3.27886
G1 X220.591 Y154.529 E3.29591
G1 X219.897 Y153.157 E3.31519
G1 X219.186 Y151.844 E3.33392
G1 X218.659 Y150.748 E3.34917
G1 X218.413 Y149.633 E3.36348
G1 X218.398 Y149.46 E3.36566
G1 X218.129 Y146.774 E3.39951
G1 X217.778 Y144.055 E3.43389
G1 X217.511 Y142.31 E3.45603
G1 X217.314 Y141.099 E3.47142
G1 X217.259 Y140.509 E3.47885
G1 X217.283 Y139.917 E3.48628
G1 X217.387 Y139.333 E3.49372
G1 X217.823 Y138.175 E3.50923
G1 X218.37 Y137.206 E3.52319
G1 X218.997 Y136.509 E3.53495
G1 X219.873 Y135.729 E3.54965
G1 X220.036 Y135.603 E3.55224
G1 X220.967 Y134.794 E3.56771
G1 X221.851 Y134.196 E3.58109
G1 X222.993 Y133.613 E3.59717
G1 X223.905 Y133.154 E3.60997
G1 X224.403 Y132.94 E3.61677
G1 X225.607 Y132.511 E3.6328
G1 X226.763 Y132.126 E3.64808
G1 X227.993 Y131.779 E3.6641
G1 X228.583 Y131.717 E3.67154
G1 X229.176 Y131.735 E3.67898
G1 X230.151 Y131.941 E3.69148
G1 X230.654 Y132.102 E3.6981
G1 X232.316 Y132.656 E3.72007
G1 X233.279 Y133.012 E3.73295
G1 X233.509 Y133.118 E3.73612
G1 X234.434 Y133.578 E3.74908
G1 X235.623 Y134.188 E3.76584
G1 X236.55 Y134.817 E3.77989
G1 X236.931 Y135.152 E3.78625
G1 X237.986 Y136.056 E3.80367
G1 X238.885 Y136.902 E3.81915
G1 X239.242 Y137.375 E3.82658
G1 X239.776 Y138.398 E3.84105
G1 X240.109 Y139.282 E3.8529
G1 X240.223 Y139.864 E3.86034
G1 X240.248 Y140.714 E3.871
G1 X240.16 Y142.018 E3.88739
G1 X240.161 Y142.078 E3.88814
G1 X240.025 Y144.458 E3.91804
G1 X239.947 Y147.145 E3.95175
G1 X239.945 Y149.867 E3.98588
G1 X239.959 Y150.366 E3.99214
G1 X239.973 Y151.467 E4.00595
G1 X239.94 Y152.059 E4.01339
G1 X239.828 Y152.641 E4.02082
G1 X239.639 Y153.203 E4.02826
G1 X239.377 Y153.735 E4.03569
G1 X239.045 Y154.226 E4.04312
G1 X238.65 Y154.669 E4.05057
G1 X238.199 Y155.054 E4.058
G1 X237.7 Y155.375 E4.06544
G1 X236.137 Y155.986 E4.08649
G1 X234.983 Y156.365 E4.10172
G1 X232.326 Y157.277 E4.13695
G1 X230.966 Y157.723 E4.1549
G1 X229.968 Y157.824 E4.16748
G1 X229.528 Y157.829 E4.173
G1 X227.727 Y157.83 E4.19558
G1 X226.567 Y157.784 E4.21014
M204 S456
G0 F6000 X226.618 Y157.388
M204 S1425
G1 F1350 X225.753 Y157.277 E4.22108
G1 X224.63 Y157.118 E4.2353
G1 X223.745 Y156.963 E4.24657
G1 X223.212 Y156.774 E4.25366
G1 X222.711 Y156.511 E4.26075
G1 X222.252 Y156.181 E4.26784
G1 X221.845 Y155.789 E4.27493
G1 X221.267 Y154.959 E4.28761
G1 X220.922 Y154.298 E4.29696
G1 X220.258 Y152.985 E4.31541
G1 X219.541 Y151.659 E4.33432
G1 X219.026 Y150.587 E4.34923
G1 X218.812 Y149.599 E4.36191
G1 X218.797 Y149.426 E4.36409
G1 X218.525 Y146.72 E4.39819
G1 X218.178 Y144.023 E4.43229
G1 X217.9 Y142.209 E4.45531
G1 X217.709 Y141.035 E4.47022
G1 X217.658 Y140.472 E4.47731
G1 X217.687 Y139.908 E4.48439
G1 X217.795 Y139.353 E4.49148
G1 X218.19 Y138.334 E4.50519
G1 X218.71 Y137.419 E4.51839
G1 X219.569 Y136.532 E4.53387
G1 X220.285 Y135.915 E4.54572
G1 X221.229 Y135.095 E4.5614
G1 X222.033 Y134.552 E4.57357
G1 X223.173 Y133.97 E4.58962
G1 X224.085 Y133.511 E4.60243
G1 X224.537 Y133.317 E4.60859
G1 X225.734 Y132.891 E4.62453
G1 X226.884 Y132.507 E4.63973
G1 X228.088 Y132.168 E4.65542
G1 X228.65 Y132.115 E4.6625
G1 X229.215 Y132.142 E4.66959
G1 X230.138 Y132.355 E4.68147
G1 X230.489 Y132.468 E4.68609
G1 X232.184 Y133.034 E4.7085
G1 X233.122 Y133.38 E4.72104
G1 X233.331 Y133.476 E4.72392
G1 X234.249 Y133.932 E4.73678
G1 X234.489 Y134.057 E4.74017
G1 X235.44 Y134.544 E4.75357
G1 X236.285 Y135.117 E4.76637
G1 X236.642 Y135.431 E4.77234
G1 X237.721 Y136.356 E4.79016
G1 X238.6 Y137.184 E4.8053
G1 X239.161 Y138.044 E4.81818
G1 X239.548 Y138.875 E4.82967
G1 X239.729 Y139.41 E4.83676
G1 X239.832 Y139.966 E4.84385
G1 X239.849 Y140.687 E4.85289
G1 X239.763 Y141.957 E4.86885
G1 X239.761 Y142.055 E4.87008
G1 X239.626 Y144.424 E4.89984
G1 X239.547 Y147.133 E4.93383
G1 X239.545 Y149.878 E4.96825
G1 X239.559 Y150.371 E4.97443
G1 X239.573 Y151.472 E4.98824
G1 X239.54 Y152.037 E4.99534
G1 X239.428 Y152.591 E5.00243
G1 X239.239 Y153.123 E5.00951
G1 X238.977 Y153.624 E5.0166
G1 X238.646 Y154.083 E5.02369
G1 X238.255 Y154.491 E5.03078
G1 X237.81 Y154.839 E5.03787
G1 X236.889 Y155.3 E5.05078
G1 X235.933 Y155.633 E5.06348
G1 X234.821 Y155.997 E5.07815
G1 X232.248 Y156.88 E5.11226
G1 X230.857 Y157.337 E5.13062
G1 X229.868 Y157.426 E5.14308
G1 X229.527 Y157.429 E5.14735
G1 X227.733 Y157.43 E5.16985
G1 X226.618 Y157.388 E5.18384
M204 S456
G0 F6000 X226.669 Y156.991
M204 S1425
G1 F1350 X225.809 Y156.88 E5.19472
G1 X224.728 Y156.727 E5.20841
G1 X223.825 Y156.57 E5.2199
G1 X223.322 Y156.385 E5.22662
G1 X222.851 Y156.127 E5.23336
G1 X222.425 Y155.802 E5.24008
G1 X222.051 Y155.417 E5.24681
G1 X221.622 Y154.774 E5.2565
G1 X221.279 Y154.117 E5.2658
G1 X220.617 Y152.808 E5.28419
G1 X219.895 Y151.473 E5.30322
G1 X219.394 Y150.428 E5.31776
G1 X219.21 Y149.564 E5.32883
G1 X219.195 Y149.391 E5.33101
G1 X218.922 Y146.665 E5.36537
G1 X218.579 Y144.005 E5.399
G1 X218.296 Y142.149 E5.42255
G1 X218.104 Y140.971 E5.43751
G1 X218.057 Y140.437 E5.44424
G1 X218.091 Y139.902 E5.45096
G1 X218.355 Y138.959 E5.46324
G1 X218.762 Y138.086 E5.47532
G1 X219.049 Y137.633 E5.48204
G1 X219.836 Y136.83 E5.49614
G1 X220.549 Y136.217 E5.50793
G1 X221.492 Y135.397 E5.52361
G1 X222.215 Y134.909 E5.53454
G1 X223.353 Y134.327 E5.55057
G1 X224.265 Y133.868 E5.56338
G1 X224.672 Y133.694 E5.56893
G1 X225.861 Y133.27 E5.58476
G1 X227.005 Y132.889 E5.59988
G1 X228.181 Y132.559 E5.6152
G1 X228.715 Y132.514 E5.62192
G1 X229.25 Y132.55 E5.62864
G1 X230.366 Y132.849 E5.64313
G1 X232.052 Y133.411 E5.66542
G1 X232.966 Y133.748 E5.67763
G1 X233.153 Y133.835 E5.68022
G1 X234.064 Y134.287 E5.69297
G1 X234.281 Y134.4 E5.69604
G1 X235.258 Y134.9 E5.7098
G1 X236.021 Y135.418 E5.72137
G1 X236.382 Y135.735 E5.72739
G1 X237.457 Y136.656 E5.74514
G1 X238.314 Y137.464 E5.75991
G1 X238.801 Y138.218 E5.77117
G1 X239.179 Y139.029 E5.78239
G1 X239.349 Y139.538 E5.78912
G1 X239.441 Y140.066 E5.79584
G1 X239.45 Y140.66 E5.80329
G1 X239.361 Y141.974 E5.81981
G1 X239.362 Y142.033 E5.82055
G1 X239.225 Y144.427 E5.85062
G1 X239.147 Y147.121 E5.88442
G1 X239.145 Y149.853 E5.91868
G1 X239.159 Y150.376 E5.92524
G1 X239.173 Y151.477 E5.93905
G1 X239.14 Y152.012 E5.94577
G1 X239.027 Y152.537 E5.9525
G1 X238.838 Y153.039 E5.95923
G1 X238.577 Y153.507 E5.96595
G1 X238.249 Y153.931 E5.97267
G1 X237.861 Y154.302 E5.9794
G1 X237.423 Y154.611 E5.98613
G1 X236.757 Y154.923 E5.99535
G1 X235.809 Y155.252 E6.00793
G1 X234.746 Y155.6 E6.02196
G1 X232.066 Y156.52 E6.05749
G1 X230.749 Y156.95 E6.07487
G1 X229.561 Y157.029 E6.0898
G1 X227.739 Y157.03 E6.11264
G1 X226.669 Y156.991 E6.12607
M204 S456
G0 F6000 X226.719 Y156.594
M204 S1425
G1 F1350 X225.865 Y156.484 E6.13687
G1 X224.748 Y156.326 E6.15102
G1 X223.907 Y156.177 E6.16173
G1 X223.435 Y155.996 E6.16807
G1 X222.997 Y155.743 E6.17441
G1 X222.605 Y155.424 E6.18075
G1 X222.268 Y155.047 E6.18709
G1 X221.655 Y153.974 E6.20259
G1 X220.961 Y152.601 E6.22188
G1 X220.25 Y151.288 E6.2406
G1 X219.763 Y150.27 E6.25475
G1 X219.594 Y149.356 E6.26641
G1 X219.322 Y146.641 E6.30063
G1 X218.964 Y143.869 E6.33568
G1 X218.691 Y142.088 E6.35827
G1 X218.499 Y140.907 E6.37328
G1 X218.457 Y140.403 E6.37962
G1 X218.495 Y139.899 E6.38596
G1 X218.722 Y139.118 E6.39616
G1 X219.115 Y138.274 E6.40783
G1 X219.387 Y137.848 E6.41417
G1 X220.103 Y137.128 E6.42691
G1 X220.807 Y136.523 E6.43855
G1 X221.754 Y135.699 E6.45429
G1 X222.397 Y135.265 E6.46402
G1 X223.532 Y134.685 E6.48
